Zeffiretti/DesAppliofRob/two-link-Lagrange/joint-state-data.csv
time(s),joint1,joint2,joint3,joint4,joint5,joint6,joint7,wheel_joint_left,wheel_joint_right
0.506,-2.15921e-07,6.20337e-06,3.39417e-06,-1.00021e-05,2.48635e-06,-1.10005e-08,5.76343e-09,-3.02996e-08,1.00276e-07
0.526,-2.27509e-07,6.26318e-06,3.56089e-06,-9.85864e-06,2.50435e-06,-1.09216e-08,5.7177e-09,-2.5995e-08,1.06892e-07
0.546,-2.28523e-07,-6.13042e-06,3.5678e-06,-9.83073e-06,2.4989e-06,-1.081e-08,5.70966e-09,-2.13858e-08,1.13239e-07
0.566,-2.27598e-07,-1.1362e-05,3.55317e-06,-9.86217e-06,2.49795e-06,-1.08311e-08,5.71409e-09,-1.67815e-08,1.19601e-07
0.586,-2.26645e-07,6.09189e-06,3.53822e-06,-9.89485e-06,2.49683e-06,-1.08547e-08,5.71826e-09,-1.21841e-08,1.25976e-07
0.606,-2.25689e-07,-6.15412e-06,3.5231e-06,-9.92845e-06,2.49572e-06,-1.08791e-08,5.72248e-09,-7.60635e-09,1.32365e-07
0.626,-2.24731e-07,-1.12874e-05,3.50782e-06,-9.96293e-06,2.49462e-06,-1.09043e-08,5.72676e-09,-3.13692e-09,1.38768e-07
0.646,-2.2377e-07,6.1379e-06,3.49238e-06,-1.0013e-05,2.49353e-06,-1.09303e-08,5.73109e-09,2.09984e-09,1.45184e-07
0.666,-2.22808e-07,-6.09221e-06,3.47679e-06,1.00342e-05,2.49245e-06,-1.09571e-08,5.73548e-09,6.44752e-09,1.51614e-07
0.686,-2.21843e-07,-6.75661e-06,3.46104e-06,1.00693e-05,2.49138e-06,-1.09847e-08,5.73993e-09,1.1015e-08,1.58057e-07
0.706,-2.20877e-07,6.19409e-06,3.44517e-06,1.01061e-05,2.49032e-06,-1.10133e-08,5.74443e-09,1.56108e-08,1.64515e-07
0.726,-2.19909e-07,-6.11703e-06,3.42915e-06,1.01437e-05,2.48927e-06,-1.10427e-08,5.749e-09,2.02157e-08,1.70987e-07
0.746,-2.1894e-07,-6.23193e-06,3.41301e-06,1.01823e-05,2.48824e-06,-1.10732e-08,5.75363e-09,2.48248e-08,1.77472e-07
0.766,-2.1797e-07,-6.24073e-06,3.39675e-06,1.02217e-05,2.48721e-06,-1.11046e-08,5.75832e-09,2.94363e-08,1.83972e-07
0.786,-2.27559e-07,-6.17478e-06,3.561e-06,-9.8574e-06,2.50353e-06,-1.09181e-08,5.71597e-09,3.3724e-08,1.90563e-07
0.806,-2.28526e-07,-1.13832e-05,3.56783e-06,-9.83082e-06,2.4989e-06,-1.08101e-08,5.70965e-09,3.83324e-08,1.9691e-07
0.826,-2.03906e-07,-7.15353e-06,3.12844e-06,-2.3989e-05,2.49481e-06,1.17096e-08,5.81377e-09,4.29707e-08,2.03395e-07
0.846,-2.04976e-07,5.79255e-06,3.18549e-06,-1.02672e-05,2.47261e-06,-1.11112e-08,5.7696e-09,4.75609e-08,2.09764e-07
0.866,-2.05599e-07,-5.90424e-06,3.19263e-06,-1.0307e-05,2.48257e-06,-1.11548e-08,5.78927e-09,5.21712e-08,2.16166e-07
0.886,-2.02756e-07,-6.94129e-06,3.15836e-06,-1.01335e-05,2.44613e-06,-1.09743e-08,5.7195e-09,5.67514e-08,2.22517e-07
0.906,-2.03426e-07,-5.68112e-06,3.17266e-06,-1.01239e-05,2.44674e-06,-1.09589e-08,5.71866e-09,6.13509e-08,2.28861e-07
0.926,-2.03426e-07,-5.67967e-06,3.17266e-06,-1.0121e-05,2.44672e-06,-1.09555e-08,5.71863e-09,6.59539e-08,2.35208e-07
0.946,-2.03018e-07,-6.92013e-06,3.16666e-06,-1.01092e-05,2.4431e-06,-1.09438e-08,5.71206e-09,7.05555e-08,2.41557e-07
0.966,-2.0373e-07,5.69995e-06,3.17534e-06,-1.01502e-05,2.45182e-06,-1.09862e-08,5.72863e-09,7.51641e-08,2.47916e-07
0.986,-2.03425e-07,-5.83522e-06,3.17263e-06,-1.01193e-05,2.44667e-06,-1.09542e-08,5.71856e-09,7.97636e-08,2.54259e-07
1.006,-2.04033e-07,-6.92524e-06,3.17803e-06,-1.01753e-05,2.45683e-06,-1.10131e-08,5.7385e-09,8.43745e-08,2.60627e-07
1.026,-2.03424e-07,-5.67865e-06,3.1726e-06,-1.01176e-05,2.44662e-06,-1.09529e-08,5.7185e-09,8.89705e-08,2.66967e-07
1.046,-2.03089e-07,-5.66541e-06,3.16893e-06,-1.00989e-05,2.44215e-06,-1.09324e-08,5.70983e-09,9.35709e-08,2.73307e-07
1.066,-2.10642e-07,-1.21287e-05,3.25839e-06,1.15327e-05,2.72873e-06,-1.24845e-08,6.15261e-09,9.82246e-08,2.80122e-07
1.086,-2.12145e-07,-7.17031e-06,3.266e-06,-1.08799e-05,2.58794e-06,-1.17748e-08,5.99732e-09,1.0267e-07,2.86529e-07
1.106,-2.13081e-07,-6.48871e-06,3.22643e-06,-1.38061e-05,2.62401e-06,-2.66273e-08,6.0615e-09,1.07381e-07,2.93074e-07
1.126,-2.27496e-07,6.27298e-06,3.56224e-06,-9.87066e-06,2.50297e-06,-1.08225e-08,5.71551e-09,1.11501e-07,2.99513e-07
1.146,-2.10657e-07,-1.33141e-05,3.25184e-06,-1.14315e-05,2.72535e-06,-1.24086e-08,6.1441e-09,1.16152e-07,3.0641e-07
1.166,-2.11793e-07,-7.16326e-06,3.26144e-06,-1.08484e-05,2.58233e-06,-1.17413e-08,5.98628e-09,1.20589e-07,3.12806e-07
1.186,-2.12365e-07,-7.17408e-06,3.26964e-06,-1.08695e-05,2.59138e-06,-1.17583e-08,6.00422e-09,1.252e-07,3.19352e-07
1.206,-2.03464e-07,5.68073e-06,3.17061e-06,-1.01003e-05,2.44708e-06,-1.09335e-08,5.71989e-09,1.29661e-07,3.2561e-07
1.226,-2.04115e-07,-5.85577e-06,3.17876e-06,-1.01818e-05,2.45817e-06,-1.10201e-08,5.74115e-09,1.34272e-07,3.31979e-07
1.246,-2.1733e-07,-6.27825e-06,3.42226e-06,-9.99293e-06,2.48606e-06,-1.09991e-08,5.75332e-09,1.38653e-07,3.38591e-07
1.266,-2.17067e-07,-6.25036e-06,3.38219e-06,-1.02414e-05,2.48627e-06,-1.11288e-08,5.76261e-09,1.43288e-07,3.45123e-07
1.286,-2.16108e-07,-6.25751e-06,3.3653e-06,-1.0284e-05,2.48527e-06,-1.11677e-08,5.76748e-09,1.47905e-07,3.51651e-07
1.306,-2.28326e-07,-6.6719e-06,3.55235e-06,-9.91393e-06,2.49983e-06,-1.08609e-08,5.70876e-09,1.52344e-07,3.58191e-07
1.326,-2.03486e-07,5.68496e-06,3.1653e-06,-1.00963e-05,2.44838e-06,-1.09527e-08,5.72227e-09,1.56943e-07,3.64621e-07
1.346,-2.04193e-07,-5.85822e-06,3.17938e-06,-1.0188e-05,2.45947e-06,-1.10264e-08,5.74373e-09,1.61557e-07,3.70995e-07
1.366,-2.04807e-07,-6.93765e-06,3.1851e-06,-1.02404e-05,2.46958e-06,-1.10832e-08,5.76365e-09,1.66168e-07,3.7738e-07
1.386,-2.05425e-07,5.81892e-06,3.19097e-06,-1.02922e-05,2.47973e-06,-1.1139e-08,5.78366e-09,1.7078e-07,3.83778e-07
1.406,-2.0308e-07,-5.82709e-06,3.16871e-06,-1.00879e-05,2.4418e-06,-1.09237e-08,5.70933e-09,1.75356e-07,3.90095e-07
1.426,-2.03427e-07,-5.68012e-06,3.17269e-06,-1.01226e-05,2.44676e-06,-1.09569e-08,5.71868e-09,1.79963e-07,3.96445e-07
1.446,-2.04032e-07,-6.92524e-06,3.17802e-06,-1.01753e-05,2.45682e-06,-1.1013e-08,5.73848e-09,1.84574e-07,4.02813e-07
1.466,-2.03424e-07,-5.67865e-06,3.1726e-06,-1.01176e-05,2.44662e-06,-1.09529e-08,5.7185e-09,1.8917e-07,4.09152e-07
1.486,-2.03018e-07,-6.92012e-06,3.16666e-06,-1.01091e-05,2.4431e-06,-1.09437e-08,5.71206e-09,1.93773e-07,4.15501e-07
1.506,-2.0373e-07,5.69995e-06,3.17534e-06,-1.01502e-05,2.45182e-06,-1.09862e-08,5.72863e-09,1.98382e-07,4.2186e-07
1.526,-2.27923e-07,6.19099e-06,3.56746e-06,-9.79008e-06,2.49742e-06,-1.08479e-08,5.70228e-09,2.02743e-07,4.28353e-07
1.546,-2.03637e-07,-5.84547e-06,3.16694e-06,-1.01081e-05,2.45091e-06,-1.0966e-08,5.7272e-09,2.0735e-07,4.34794e-07
1.566,-2.2792e-07,-6.71461e-06,3.56737e-06,-9.79073e-06,2.49744e-06,-1.08469e-08,5.70233e-09,2.11714e-07,4.4129e-07
1.586,-2.28545e-07,-1.13831e-05,3.5682e-06,-9.8315e-06,2.49891e-06,-1.08111e-08,5.70951e-09,2.16321e-07,4.47633e-07
1.606,-2.02657e-07,-7.1456e-06,3.11132e-06,-2.3923e-05,2.4787e-06,1.16193e-08,5.78302e-09,2.20956e-07,4.54094e-07
1.626,-2.02793e-07,-7.04559e-06,3.11139e-06,-2.41728e-05,2.48224e-06,1.16361e-08,5.79078e-09,2.25345e-07,4.60683e-07
1.646,-2.04041e-07,5.72652e-06,3.17683e-06,-1.01893e-05,2.45722e-06,-1.10271e-08,5.73926e-09,2.29934e-07,4.67028e-07
1.666,-2.02943e-07,-5.83512e-06,3.16426e-06,-1.01165e-05,2.44397e-06,-1.09528e-08,5.71419e-09,2.34529e-07,4.73378e-07
1.686,-2.03426e-07,5.68064e-06,3.17267e-06,-1.01233e-05,2.44676e-06,-1.09578e-08,5.71868e-09,2.39133e-07,4.79725e-07
1.706,-2.11175e-07,-1.32981e-05,3.2654e-06,1.15433e-05,2.73286e-06,-1.24981e-08,6.15631e-09,2.43788e-07,4.86542e-07
1.726,-2.12133e-07,-7.14976e-06,3.24063e-06,1.13315e-05,2.58955e-06,1.21627e-08,5.99585e-09,2.48263e-07,4.92965e-07
1.746,-2.03058e-07,-5.65297e-06,3.16713e-06,-1.00665e-05,2.441e-06,-1.09059e-08,5.70826e-09,2.52767e-07,4.99211e-07
1.766,-2.03427e-07,-5.67983e-06,3.1727e-06,-1.01223e-05,2.44674e-06,-1.09566e-08,5.71866e-09,2.57374e-07,5.05561e-07
1.786,-2.27936e-07,-6.71457e-06,3.56754e-06,-9.79281e-06,2.4972e-06,-1.08485e-08,5.70177e-09,2.61745e-07,5.12055e-07
1.806,-2.02629e-07,-7.05726e-06,3.11124e-06,-2.40018e-05,2.47978e-06,1.16356e-08,5.78527e-09,2.66375e-07,5.18507e-07
1.826,-2.27934e-07,6.27969e-06,3.56677e-06,-9.81186e-06,2.49653e-06,-1.08579e-08,5.70036e-09,2.70735e-07,5.24976e-07
1.846,-2.02964e-07,-5.8306e-06,3.15983e-06,-1.00615e-05,2.4413e-06,-1.09168e-08,5.7086e-09,2.75334e-07,5.31401e-07
1.866,-2.03727e-07,-6.92053e-06,3.17523e-06,-1.01489e-05,2.45177e-06,-1.09845e-08,5.72855e-09,2.79947e-07,5.37764e-07
1.886,-2.03425e-07,-5.67917e-06,3.17263e-06,-1.01193e-05,2.44667e-06,-1.09542e-08,5.71856e-09,2.84547e-07,5.44108e-07
1.906,-2.29084e-07,6.25324e-06,3.57605e-06,-9.80346e-06,2.49939e-06,-1.07954e-08,5.70805e-09,2.88921e-07,5.50591e-07
1.926,-2.02919e-07,-5.83096e-06,3.15786e-06,-1.00696e-05,2.44216e-06,-1.0925e-08,5.71056e-09,2.93525e-07,5.57028e-07
1.946,-2.02146e-07,-6.28182e-06,3.15331e-06,-1.0077e-05,2.44455e-06,-1.09971e-08,5.71723e-09,2.97918e-07,5.63622e-07
1.966,-2.33593e-07,-1.05293e-05,3.68001e-06,1.19846e-05,2.85759e-06,-1.28675e-08,6.42313e-09,3.03148e-07,5.70779e-07
1.986,-2.03663e-07,5.68287e-06,3.17406e-06,-1.0264e-05,2.45207e-06,-1.10811e-08,5.72878e-09,3.07419e-07,5.76608e-07
2.006,-2.04117e-07,-5.85561e-06,3.17872e-06,-1.01843e-05,2.45824e-06,-1.10222e-08,5.74128e-09,3.12027e-07,5.82974e-07
2.026,-2.03424e-07,-6.91486e-06,3.17259e-06,-1.01172e-05,2.44661e-06,-1.09526e-08,5.71848e-09,3.16622e-07,5.89313e-07
2.046,-2.33573e-07,-1.05304e-05,3.67938e-06,1.19833e-05,2.85725e-06,-1.28627e-08,6.42252e-09,3.21857e-07,5.96473e-07
2.066,-2.12427e-07,-7.16909e-06,3.27128e-06,-1.09247e-05,2.59246e-06,-1.18236e-08,6.00649e-09,3.25996e-07,6.02545e-07
2.086,-2.33219e-07,-1.05101e-05,3.67252e-06,1.19369e-05,2.85415e-06,-1.28213e-08,6.41578e-09,3.31083e-07,6.09609e-07
2.106,-2.12427e-07,-7.16857e-06,3.27136e-06,-1.09239e-05,2.59242e-06,-1.18231e-08,6.00643e-09,3.35221e-07,6.15681e-07
2.126,-2.03036e-07,-5.6627e-06,3.16586e-06,-1.00737e-05,2.44129e-06,-1.09056e-08,5.70875e-09,3.39676e-07,6.21929e-07
2.146,-2.0309e-07,-5.66598e-06,3.16894e-06,-1.01005e-05,2.44218e-06,-1.09336e-08,5.70988e-09,3.44279e-07,6.28272e-07
2.166,-2.03427e-07,5.68024e-06,3.17268e-06,-1.01228e-05,2.44676e-06,-1.0957e-08,5.71869e-09,3.48886e-07,6.34622e-07
2.186,-2.04032e-07,-5.85336e-06,3.17802e-06,-1.01753e-05,2.45682e-06,-1.1013e-08,5.73848e-09,3.53497e-07,6.4099e-07
2.206,-2.2791e-07,-6.71406e-06,3.56738e-06,-9.78737e-06,2.49763e-06,-1.08472e-08,5.70278e-09,3.5785e-07,6.47481e-07
2.226,-2.09465e-07,-7.30583e-06,3.21245e-06,-2.4976e-05,2.74626e-06,1.29376e-08,6.19188e-09,3.62868e-07,6.54221e-07
2.246,-2.03417e-07,5.67632e-06,3.16968e-06,-1.01227e-05,2.44644e-06,-1.09609e-08,5.71872e-09,3.6721e-07,6.60351e-07
2.266,-2.04036e-07,-5.8534e-06,3.17803e-06,-1.01757e-05,2.45688e-06,-1.10135e-08,5.73861e-09,3.7182e-07,6.66717e-07
2.286,-2.29077e-07,6.25551e-06,3.57589e-06,-9.80452e-06,2.49936e-06,-1.07963e-08,5.708e-09,3.76177e-07,6.73191e-07
2.306,-2.28099e-07,-6.13151e-06,3.56099e-06,-9.84529e-06,2.49854e-06,-1.0819e-08,5.71195e-09,3.8079e-07,6.79546e-07
2.326,-2.27146e-07,-1.13498e-05,3.54609e-06,-9.87754e-06,2.49742e-06,-1.08422e-08,5.71607e-09,3.85403e-07,6.85915e-07
2.346,-2.02778e-07,5.69026e-06,3.15341e-06,-1.00946e-05,2.44413e-06,-1.09525e-08,5.71513e-09,3.90003e-07,6.92365e-07
2.366,-2.2713e-07,-6.28656e-06,3.57806e-06,-9.80433e-06,2.50828e-06,-1.09452e-08,5.72022e-09,3.94349e-07,6.9907e-07
2.386,-2.28706e-07,-1.13906e-05,3.57096e-06,-9.81932e-06,2.49918e-06,-1.08004e-08,5.70886e-09,3.98982e-07,7.05437e-07
2.406,-2.04145e-07,5.72621e-06,3.17126e-06,-1.01535e-05,2.45937e-06,-1.10134e-08,5.74382e-09,4.03597e-07,7.119e-07
2.426,-2.29075e-07,6.04374e-06,3.57582e-06,-9.80451e-06,2.49934e-06,-1.0796e-08,5.70799e-09,4.07951e-07,7.18373e-07
2.446,-2.0395e-07,-5.85232e-06,3.16946e-06,-1.01355e-05,2.45612e-06,-1.09943e-08,5.73744e-09,4.12564e-07,7.24829e-07
2.466,-2.04657e-07,-6.93513e-06,3.1836e-06,-1.02269e-05,2.46711e-06,-1.10684e-08,5.75878e-09,4.17179e-07,7.31213e-07
2.486,-2.27957e-07,6.27116e-06,3.56747e-06,-9.79295e-06,2.49675e-06,-1.08464e-08,5.70079e-09,4.21544e-07,7.37689e-07
2.506,-2.02629e-07,-7.05701e-06,3.11124e-06,-2.40019e-05,2.47978e-06,1.16356e-08,5.78527e-09,4.26175e-07,7.44141e-07
2.526,-2.0303e-07,5.6795e-06,3.16586e-06,-1.0121e-05,2.44311e-06,-1.09549e-08,5.71195e-09,4.30756e-07,7.50468e-07
2.546,-2.0373e-07,-5.84471e-06,3.17532e-06,-1.01504e-05,2.45182e-06,-1.09863e-08,5.72863e-09,4.35365e-07,7.56826e-07
2.566,-2.02982e-07,-6.92311e-06,3.16549e-06,-1.01127e-05,2.44353e-06,-1.09481e-08,5.7131e-09,4.39965e-07,7.63176e-07
2.586,-2.29085e-07,6.25229e-06,3.57607e-06,-9.80345e-06,2.49939e-06,-1.07954e-08,5.70803e-09,4.44345e-07,7.69661e-07
2.606,-2.28102e-07,-6.13146e-06,3.56104e-06,-9.84515e-06,2.49854e-06,-1.08189e-08,5.71194e-09,4.48958e-07,7.76016e-07
2.626,-2.27149e-07,-1.13499e-05,3.54615e-06,-9.87742e-06,2.49742e-06,-1.08421e-08,5.71606e-09,4.53571e-07,7.82385e-07
2.646,-2.26195e-07,6.09859e-06,3.53111e-06,-9.91057e-06,2.49631e-06,-1.08661e-08,5.72025e-09,4.58185e-07,7.88767e-07
2.666,-2.25238e-07,-6.1583e-06,3.51592e-06,-9.94457e-06,2.4952e-06,-1.08909e-08,5.72449e-09,4.628e-07,7.95162e-07
2.686,-2.24278e-07,-6.70779e-06,3.50056e-06,9.97949e-06,2.49411e-06,-1.09164e-08,5.72879e-09,4.67414e-07,8.01572e-07
2.706,-2.23317e-07,6.14638e-06,3.48505e-06,-1.00146e-05,2.49302e-06,-1.09428e-08,5.73315e-09,4.72029e-07,8.07995e-07
2.726,-2.22353e-07,-6.09602e-06,3.46938e-06,-1.00606e-05,2.49195e-06,-1.097e-08,5.73757e-09,4.76644e-07,8.14431e-07
2.746,1.53972e-07,8.41744e-06,-3.20839e-06,-1.14285e-05,1.83966e-06,-1.23727e-08,0.188777,4.81513e-07,8.21134e-07
2.766,1.54267e-07,8.84112e-06,-3.34975e-06,-1.12782e-05,1.74196e-06,-1.22122e-08,0.26528,4.86738e-07,8.28205e-07
2.786,-2.18669e-07,-6.02125e-06,-3.16042e-06,-1.03348e-05,-1.31685e-06,-1.12908e-08,0.317559,4.91943e-07,8.35246e-07
2.806,-2.1003e-07,8.70291e-06,-3.27052e-06,-1.1014e-05,-1.32008e-06,-1.19904e-08,0.375831,4.97129e-07,8.42221e-07
2.826,-2.06523e-07,8.17698e-06,-3.3391e-06,-1.23604e-05,-1.32414e-06,-1.33688e-08,0.40461,5.02393e-07,8.49378e-07
2.846,-1.77955e-07,-6.07073e-06,-3.23552e-06,-1.18796e-05,-1.53349e-06,-1.28591e-08,0.427805,5.07598e-07,8.56413e-07
2.866,-1.79059e-07,-6.08794e-06,-3.25627e-06,-1.1923e-05,-1.52548e-06,-1.29204e-08,0.44144,5.12817e-07,8.63475e-07
2.886,-1.53314e-07,-6.08627e-06,-3.29893e-06,-1.06004e-05,1.98235e-06,-1.16857e-08,0.420555,5.17655e-07,8.70531e-07
2.906,-1.67149e-07,-5.90561e-06,-3.05172e-06,-1.13949e-05,1.70021e-06,-1.23305e-08,0.409799,5.22903e-07,8.77602e-07
2.926,-1.50039e-07,8.65872e-06,-3.27407e-06,-1.07958e-05,1.64437e-06,-1.17819e-08,0.364138,5.27902e-07,8.84703e-07
2.946,-1.51025e-07,8.7827e-06,-3.2917e-06,-1.08797e-05,1.6626e-06,-1.18432e-08,0.312745,5.33159e-07,8.91699e-07
2.966,-1.78458e-07,7.98396e-06,-3.29693e-06,-1.23224e-05,1.88451e-06,-1.32888e-08,0.257026,5.38463e-07,8.98852e-07
2.986,-1.76514e-07,7.79692e-06,-3.26441e-06,-1.22394e-05,1.86482e-06,-1.31987e-08,0.177623,5.43447e-07,9.06047e-07
3.006,-1.70221e-07,-5.94951e-06,-3.09086e-06,-1.15122e-05,1.73831e-06,-1.24065e-08,0.108796,5.48629e-07,9.1297e-07
3.026,-1.69984e-07,-5.94204e-06,-3.08632e-06,-1.14903e-05,1.73448e-06,-1.23864e-08,0.0847805,5.53834e-07,9.19912e-07
3.046,-1.70153e-07,-5.94765e-06,-3.09008e-06,-1.1495e-05,1.7366e-06,-1.2397e-08,0.0709682,5.59041e-07,9.2686e-07
3.066,-1.71332e-07,-5.96977e-06,-3.11017e-06,-1.15423e-05,1.74872e-06,-1.24423e-08,0.0902589,5.64253e-07,9.33819e-07
3.086,-1.70078e-07,-5.94408e-06,-3.08843e-06,-1.15056e-05,1.73665e-06,-1.23769e-08,0.206173,5.69455e-07,9.40768e-07
3.106,-1.70356e-07,-5.9337e-06,-3.09254e-06,-1.15429e-05,1.74008e-06,-1.24234e-08,0.287332,5.74668e-07,9.47726e-07
3.126,-1.68413e-07,-5.88375e-06,-3.06173e-06,-1.14806e-05,1.72038e-06,-1.23719e-08,0.34016,5.79869e-07,9.54665e-07
3.146,-1.69332e-07,-5.89481e-06,-3.07958e-06,-1.15334e-05,1.73145e-06,-1.24456e-08,0.383465,5.85085e-07,9.61627e-07
3.166,-1.70242e-07,-5.90504e-06,-3.09904e-06,-1.15821e-05,1.74284e-06,-1.25222e-08,0.420768,5.90302e-07,9.68604e-07
3.186,-1.67271e-07,-5.84002e-06,-3.04857e-06,-1.14645e-05,1.7106e-06,-1.23983e-08,0.426546,5.95498e-07,9.75537e-07
3.206,-1.68496e-07,-5.86235e-06,-3.0703e-06,-1.1524e-05,1.72461e-06,-1.24709e-08,0.441291,6.00714e-07,9.82501e-07
3.226,-1.70012e-07,-5.89602e-06,-3.09655e-06,-1.15793e-05,1.74135e-06,-1.25273e-08,0.419109,6.05932e-07,9.89478e-07
3.246,-1.49925e-07,8.65492e-06,-3.27318e-06,-1.07975e-05,1.64305e-06,-1.17921e-08,0.39063,6.10895e-07,9.96559e-07
3.266,-1.50603e-07,8.76584e-06,-3.28683e-06,-1.08753e-05,1.65833e-06,-1.18552e-08,0.355356,6.16153e-07,1.00356e-06
3.286,-1.51355e-07,8.79073e-06,-3.30003e-06,-1.09294e-05,1.67268e-06,-1.18877e-08,0.289688,6.21411e-07,1.01057e-06
3.306,-1.52033e-07,8.81212e-06,-3.31285e-06,-1.09816e-05,1.68611e-06,-1.19275e-08,0.233482,6.26669e-07,1.01759e-06
3.326,-1.52673e-07,8.83158e-06,-3.32603e-06,-1.10316e-05,1.69927e-06,-1.19778e-08,0.156133,6.31927e-07,1.02462e-06
3.346,-1.53236e-07,8.84761e-06,-3.33951e-06,-1.10786e-05,1.71156e-06,-1.20401e-08,0.0757557,6.37184e-07,1.03167e-06
3.366,-1.56647e-07,-6.2214e-06,-3.34646e-06,-1.0685e-05,1.68717e-06,-1.17188e-08,0.0437044,6.42192e-07,1.03887e-06
3.386,-1.52557e-07,8.84484e-06,-3.31155e-06,-1.08615e-05,1.67418e-06,-1.18108e-08,0.113076,6.47447e-07,1.04585e-06
3.406,-1.52463e-07,8.83607e-06,-3.31396e-06,-1.09121e-05,1.6802e-06,-1.18537e-08,0.149677,6.52703e-07,1.05286e-06
3.426,-1.52362e-07,8.82725e-06,-3.31561e-06,-1.09603e-05,1.68556e-06,-1.1894e-08,0.223637,6.5796e-07,1.05987e-06
3.446,-1.51984e-07,8.80747e-06,-3.31416e-06,-1.1005e-05,1.68835e-06,-1.19495e-08,0.301645,6.63218e-07,1.0669e-06
3.466,-1.51571e-07,8.78598e-06,-3.31326e-06,-1.10475e-05,1.69102e-06,-1.20137e-08,0.361227,6.68476e-07,1.07394e-06
3.486,-1.51375e-07,8.77286e-06,-3.31539e-06,-1.10919e-05,1.69609e-06,-1.20738e-08,0.391328,6.73736e-07,1.081e-06
3.506,-1.51175e-07,8.75937e-06,-3.3177e-06,-1.11363e-05,1.70107e-06,-1.21377e-08,0.429587,6.78996e-07,1.08807e-06
3.526,-1.536e-07,-6.1075e-06,-3.30792e-06,-1.0613e-05,1.65483e-06,-1.17086e-08,0.433055,6.83938e-07,1.0953e-06
3.546,-1.54094e-07,-6.1248e-06,-3.30955e-06,-1.06624e-05,1.65974e-06,-1.17422e-08,0.430277,6.88959e-07,1.10251e-06
3.566,-1.50042e-07,8.74615e-06,-3.27778e-06,-1.08424e-05,1.64865e-06,-1.1853e-08,0.4189,6.94218e-07,1.1095e-06
3.586,-1.54471e-07,-6.13928e-06,-3.31413e-06,-1.06717e-05,1.6644e-06,-1.17255e-08,0.373397,6.99235e-07,1.11671e-06
3.606,-1.50855e-07,8.77881e-06,-3.28678e-06,-1.08523e-05,1.65703e-06,-1.18254e-08,0.338193,7.04492e-07,1.1237e-06
3.626,-1.5139e-07,8.79467e-06,-3.29832e-06,-1.09064e-05,1.66969e-06,-1.1862e-08,0.273523,7.0975e-07,1.1307e-06
3.646,-1.69638e-07,-5.99762e-06,-3.0891e-06,-1.14447e-05,1.72561e-06,-1.23365e-08,0.204247,7.14992e-07,1.13779e-06
3.666,-1.71005e-07,-5.9582e-06,-3.10272e-06,-1.15428e-05,1.74605e-06,-1.24353e-08,0.133538,7.20206e-07,1.14475e-06
3.686,-1.70536e-07,-5.95198e-06,-3.09626e-06,-1.15075e-05,1.73999e-06,-1.24203e-08,0.0481709,7.25408e-07,1.15169e-06
3.706,-1.56443e-07,-6.20175e-06,-3.34055e-06,-1.07053e-05,1.68876e-06,-1.17521e-08,4.88344e-09,7.30379e-07,1.15877e-06
3.726,-1.52656e-07,8.84827e-06,-3.31636e-06,-1.08545e-05,1.67538e-06,-1.18484e-08,4.84646e-09,7.35629e-07,1.16575e-06
3.746,-1.69737e-07,-6.00391e-06,-3.09351e-06,-1.14094e-05,1.72288e-06,-1.23481e-08,5.07498e-09,7.40873e-07,1.17282e-06
3.766,-1.7421e-07,-6.554e-06,-3.08985e-06,-1.08863e-05,1.76401e-06,-1.18597e-08,5.09222e-09,7.4617e-07,1.18003e-06
3.786,-1.70317e-07,-5.95481e-06,-3.09395e-06,-1.14787e-05,1.73683e-06,-1.2413e-08,5.10374e-09,7.51377e-07,1.18698e-06
3.806,-1.56437e-07,-6.20159e-06,-3.3412e-06,-1.07027e-05,1.68868e-06,-1.17503e-08,4.89603e-09,7.56345e-07,1.19406e-06
3.826,-1.52656e-07,8.84826e-06,-3.31638e-06,-1.08544e-05,1.67539e-06,-1.18484e-08,4.84655e-09,7.61595e-07,1.20104e-06
3.846,-1.77145e-07,7.88387e-06,-3.27746e-06,-1.22177e-05,1.86693e-06,-1.32268e-08,5.30035e-09,7.66891e-07,1.20816e-06
3.866,-1.70499e-07,-5.95904e-06,-3.10037e-06,-1.15046e-05,1.74053e-06,-1.24409e-08,5.10957e-09,7.72074e-07,1.21509e-06
3.886,1.61674e-07,8.40545e-06,-3.36695e-06,-1.19109e-05,-1.39854e-06,-1.29692e-08,5.5398e-09,7.77109e-07,1.2224e-06
3.906,1.57059e-07,8.84886e-06,-3.33184e-06,-1.10602e-05,-1.40172e-06,-1.20542e-08,5.2047e-09,7.82131e-07,1.22936e-06
3.926,1.55431e-07,-6.14927e-06,-3.3774e-06,-1.08843e-05,-1.33766e-06,-1.19261e-08,4.87157e-09,7.87179e-07,1.2365e-06
3.946,-1.96772e-07,-6.04064e-06,-3.11348e-06,-1.13716e-05,-1.60554e-06,-1.23177e-08,5.09229e-09,7.92358e-07,1.24352e-06
3.966,-1.52227e-07,8.73536e-06,-3.29265e-06,-1.07437e-05,1.66439e-06,-1.17378e-08,4.8115e-09,7.97282e-07,1.25055e-06
3.986,-1.52631e-07,8.84403e-06,-3.31883e-06,-1.08781e-05,1.67873e-06,-1.18711e-08,4.85797e-09,8.02539e-07,1.25755e-06
4.006,-1.5282e-07,8.8465e-06,-3.32573e-06,-1.09268e-05,1.68721e-06,-1.19199e-08,4.88736e-09,8.07795e-07,1.26456e-06
4.026,-1.53009e-07,8.84867e-06,-3.33238e-06,-1.09746e-05,1.69571e-06,-1.19676e-08,4.91672e-09,8.13051e-07,1.27158e-06
4.046,-1.53204e-07,8.85094e-06,-3.33911e-06,-1.10227e-05,1.70433e-06,-1.20157e-08,4.94637e-09,8.18307e-07,1.27861e-06
4.066,-1.53405e-07,8.85331e-06,-3.34592e-06,-1.10711e-05,1.71308e-06,-1.20641e-08,4.97631e-09,8.23564e-07,1.28566e-06
4.086,-1.53611e-07,8.85578e-06,-3.3528e-06,-1.11199e-05,1.72196e-06,-1.21129e-08,5.00653e-09,8.2882e-07,1.29272e-06
4.106,1.53325e-07,-8.16024e-06,-3.70793e-06,-1.33905e-05,2.11298e-06,-1.43712e-08,-4.3815e-09,8.3447e-07,1.30014e-06
4.126,1.49798e-07,-6.40568e-06,-3.21454e-06,-1.22251e-05,-1.31692e-06,-1.31941e-08,-3.56291e-09,8.39463e-07,1.307e-06
4.146,-2.08298e-07,7.55198e-06,-3.12779e-06,-1.12358e-05,-1.66166e-06,-1.22167e-08,-3.6285e-09,8.44394e-07,1.31413e-06
4.166,-1.96971e-07,-5.98371e-06,-3.12904e-06,-1.15068e-05,-1.60349e-06,-1.24472e-08,-3.55555e-09,8.4964e-07,1.32112e-06
4.186,-1.52232e-07,8.73593e-06,-3.29304e-06,-1.0746e-05,1.66455e-06,-1.17401e-08,-3.59583e-09,8.54563e-07,1.32815e-06
4.206,-1.7876e-07,7.96798e-06,-3.30328e-06,-1.228e-05,1.88432e-06,-1.32989e-08,-3.62562e-09,8.59864e-07,1.33529e-06
4.226,-1.70835e-07,-5.97027e-06,-3.10768e-06,-1.15134e-05,1.74475e-06,-1.24529e-08,-3.54978e-09,8.65042e-07,1.34221e-06
4.246,-1.70687e-07,-5.95669e-06,-3.10204e-06,-1.15075e-05,1.74155e-06,-1.2443e-08,-3.54709e-09,8.70248e-07,1.34916e-06
4.266,-1.72114e-07,-5.987e-06,-3.12734e-06,-1.1563e-05,1.75707e-06,-1.25064e-08,-3.55897e-09,8.75461e-07,1.35613e-06
4.286,-1.56364e-07,-6.19911e-06,-3.34106e-06,-1.06866e-05,1.68731e-06,-1.17381e-08,-3.68221e-09,8.80404e-07,1.3632e-06
4.306,-1.52655e-07,8.84813e-06,-3.31636e-06,-1.08543e-05,1.67538e-06,-1.18483e-08,-3.61477e-09,8.85655e-07,1.37019e-06
4.326,-1.52731e-07,8.8456e-06,-3.32247e-06,-1.09032e-05,1.68305e-06,-1.18962e-08,-3.62475e-09,8.9091e-07,1.37719e-06
4.346,-1.52914e-07,8.84758e-06,-3.32906e-06,-1.09508e-05,1.69146e-06,-1.19438e-08,-3.6375e-09,8.96166e-07,1.3842e-06
4.366,-1.53106e-07,8.8498e-06,-3.33575e-06,-1.09987e-05,1.70002e-06,-1.19917e-08,-3.65043e-09,9.01422e-07,1.39123e-06
4.386,-1.53304e-07,8.85212e-06,-3.34251e-06,-1.10469e-05,1.7087e-06,-1.20399e-08,-3.66345e-09,9.06679e-07,1.39827e-06
4.406,-1.53507e-07,8.85454e-06,-3.34936e-06,-1.10955e-05,1.71751e-06,-1.20885e-08,-3.67656e-09,9.11935e-07,1.40532e-06
4.426,1.53717e-07,8.85706e-06,-3.35629e-06,-1.11444e-05,1.72646e-06,-1.21374e-08,-3.68976e-09,9.17192e-07,1.41239e-06
4.446,1.54712e-07,8.86939e-06,-3.35836e-06,-1.11979e-05,1.73717e-06,-1.2191e-08,-3.70193e-09,9.22408e-07,1.41943e-06
4.466,1.55016e-07,8.87216e-06,-3.36545e-06,-1.12479e-05,1.74641e-06,-1.2241e-08,-3.71532e-09,9.27625e-07,1.42649e-06
4.486,1.55326e-07,8.87501e-06,-3.37265e-06,-1.12979e-05,1.75577e-06,-1.2291e-08,-3.72881e-09,9.32843e-07,1.43356e-06
4.506,1.55644e-07,-6.35537e-06,-3.37994e-06,-1.13482e-05,1.76526e-06,-1.23414e-08,-3.7424e-09,9.38061e-07,1.44065e-06
4.526,1.55968e-07,-6.38088e-06,-3.3873e-06,-1.13989e-05,1.7749e-06,-1.23921e-08,-3.75607e-09,9.43279e-07,1.44775e-06
4.546,1.56299e-07,-6.40703e-06,-3.39476e-06,-1.14499e-05,1.78468e-06,-1.24432e-08,-3.76984e-09,9.48498e-07,1.45486e-06
4.566,1.5134e-07,-6.35758e-06,-3.25678e-06,-1.12542e-05,1.7208e-06,-1.21944e-08,-3.73816e-09,9.53709e-07,1.46187e-06
4.586,1.5254e-07,8.7546e-06,-3.3061e-06,-1.07916e-05,1.66714e-06,-1.17873e-08,-3.59547e-09,9.58748e-07,1.46901e-06
4.606,1.52832e-07,8.85334e-06,-3.31237e-06,-1.08715e-05,1.67829e-06,-1.18648e-08,-3.61376e-09,9.63964e-07,1.47597e-06
4.626,1.53093e-07,8.85554e-06,-3.319e-06,-1.09195e-05,1.68669e-06,-1.19127e-08,-3.62662e-09,9.6918e-07,1.48293e-06
4.646,1.53359e-07,8.85772e-06,-3.32564e-06,-1.09671e-05,1.69517e-06,-1.19603e-08,-3.6395e-09,9.74396e-07,1.48991e-06
4.666,1.53632e-07,8.85999e-06,-3.33237e-06,-1.10151e-05,1.70377e-06,-1.20083e-08,-3.65246e-09,9.79613e-07,1.4969e-06
4.686,1.53911e-07,8.86236e-06,-3.33918e-06,-1.10634e-05,1.7125e-06,-1.20566e-08,-3.66552e-09,9.84829e-07,1.5039e-06
4.706,1.54196e-07,8.86483e-06,-3.34607e-06,-1.11121e-05,1.72135e-06,-1.21053e-08,-3.67867e-09,9.90046e-07,1.51092e-06
4.726,1.56809e-07,-6.21622e-06,-3.34053e-06,-1.05442e-05,1.68172e-06,-1.16136e-08,-3.67322e-09,9.94935e-07,1.51809e-06
4.746,-1.95166e-07,-6.0183e-06,-3.08986e-06,-1.13105e-05,1.7236e-06,-1.22504e-08,-3.53589e-09,1.00012e-06,1.5251e-06
4.766,-1.9524e-07,-5.95121e-06,-3.10527e-06,-1.14541e-05,1.74158e-06,-1.23865e-08,-3.54084e-09,1.00537e-06,1.53209e-06
4.786,-1.76899e-07,7.80512e-06,-3.25766e-06,-1.21262e-05,1.85906e-06,-1.31372e-08,-3.59683e-09,1.01035e-06,1.53926e-06
4.806,-1.70486e-07,-5.95857e-06,-3.10002e-06,-1.15032e-05,1.74033e-06,-1.24395e-08,-3.54694e-09,1.01554e-06,1.54619e-06
4.826,-1.52217e-07,8.7418e-06,-3.30808e-06,-1.08035e-05,1.66642e-06,-1.17975e-08,-3.59483e-09,1.02053e-06,1.55328e-06
4.846,-1.5263e-07,8.84412e-06,-3.31903e-06,-1.08788e-05,1.67874e-06,-1.18719e-08,-3.61802e-09,1.02578e-06,1.56027e-06
4.866,-1.52819e-07,8.84649e-06,-3.32571e-06,-1.09267e-05,1.68718e-06,-1.19197e-08,-3.63101e-09,1.03104e-06,1.56728e-06
4.886,-1.69753e-07,-6.00406e-06,-3.09364e-06,-1.14113e-05,1.72329e-06,-1.23498e-08,-3.53277e-09,1.03628e-06,1.57434e-06
4.906,-1.52204e-07,8.74094e-06,-3.30783e-06,-1.08015e-05,1.66622e-06,-1.17956e-08,-3.59443e-09,1.04128e-06,1.58144e-06
4.926,-1.5263e-07,8.8441e-06,-3.31903e-06,-1.08788e-05,1.67874e-06,-1.18718e-08,-3.61801e-09,1.04653e-06,1.58843e-06
4.946,-1.52819e-07,8.84649e-06,-3.32571e-06,-1.09267e-05,1.68719e-06,-1.19197e-08,-3.63101e-09,1.05179e-06,1.59544e-06
4.966,-1.53008e-07,8.84867e-06,-3.33236e-06,-1.09744e-05,1.69568e-06,-1.19675e-08,-3.6439e-09,1.05704e-06,1.60246e-06
4.986,-1.53203e-07,8.85094e-06,-3.33909e-06,-1.10225e-05,1.7043e-06,-1.20155e-08,-3.65687e-09,1.0623e-06,1.6095e-06
5.006,-1.53404e-07,8.85331e-06,-3.34589e-06,-1.10709e-05,1.71305e-06,-1.2064e-08,-3.66993e-09,1.06756e-06,1.61654e-06
5.026,-1.71608e-07,-6.06506e-06,-3.13103e-06,-1.14838e-05,1.74799e-06,-1.24376e-08,-3.55212e-09,1.0728e-06,1.62365e-06
5.046,-1.70128e-07,-5.94685e-06,-3.09257e-06,-1.14835e-05,1.73565e-06,-1.24165e-08,-3.54261e-09,1.078e-06,1.63058e-06
5.066,-1.56454e-07,-6.20212e-06,-3.34114e-06,-1.07065e-05,1.68897e-06,-1.17528e-08,-3.68749e-09,1.08297e-06,1.63766e-06
5.086,-1.52656e-07,8.84829e-06,-3.31638e-06,-1.08545e-05,1.67539e-06,-1.18484e-08,-3.61482e-09,1.08822e-06,1.64465e-06
5.106,-1.5273e-07,8.84559e-06,-3.32244e-06,-1.0903e-05,1.68301e-06,-1.1896e-08,-3.6247e-09,1.09348e-06,1.65165e-06
5.126,-1.76822e-07,7.87772e-06,-3.27456e-06,-1.22055e-05,1.86312e-06,-1.32121e-08,-3.6079e-09,1.09877e-06,1.65877e-06
5.146,-1.7196e-07,-5.98591e-06,-3.12498e-06,-1.15637e-05,1.75569e-06,-1.25069e-08,-3.55942e-09,1.10396e-06,1.66571e-06
5.166,-1.73227e-07,-6.01083e-06,-3.14699e-06,-1.16049e-05,1.76912e-06,-1.25547e-08,-3.56822e-09,1.10917e-06,1.67269e-06
5.186,-1.74675e-07,-6.04175e-06,-3.17258e-06,-1.16594e-05,1.78488e-06,-1.26173e-08,-3.58015e-09,1.11439e-06,1.67968e-06
5.206,-1.70557e-07,-5.95276e-06,-3.10056e-06,-1.14927e-05,1.73936e-06,-1.2428e-08,-3.54341e-09,1.11957e-06,1.6866e-06
5.226,-1.70374e-07,-5.95476e-06,-3.09807e-06,-1.14924e-05,1.739e-06,-1.24276e-08,-3.54434e-09,1.12478e-06,1.69355e-06
5.246,-1.70098e-07,-5.94564e-06,-3.09218e-06,-1.14837e-05,1.73545e-06,-1.24164e-08,-3.54205e-09,1.12998e-06,1.70049e-06
5.266,-1.92962e-07,-6.49217e-06,-3.84268e-06,-1.31945e-05,2.1162e-06,-1.43218e-08,-3.6187e-09,1.13526e-06,1.70793e-06
5.286,-2.17573e-07,8.62062e-06,-3.12718e-06,-9.99533e-06,-1.3093e-06,-1.09787e-08,-3.56258e-09,1.13999e-06,1.7145e-06
5.306,-2.21144e-07,8.77662e-06,-3.27796e-06,-1.08523e-05,-1.32358e-06,-1.18461e-08,-3.59657e-09,1.1452e-06,1.72144e-06
5.326,-2.21671e-07,8.78252e-06,-3.2873e-06,-1.0913e-05,-1.32879e-06,-1.1907e-08,-3.61024e-09,1.15038e-06,1.72838e-06
5.346,-2.01364e-07,7.89164e-06,-3.26869e-06,-1.21233e-05,-1.33461e-06,-1.31291e-08,-3.60802e-09,1.15562e-06,1.73544e-06
5.366,-2.16236e-07,-6.21763e-06,-3.31864e-06,-1.0741e-05,2.03797e-06,-1.17896e-08,-3.67302e-09,1.16056e-06,1.74249e-06
5.386,-1.69848e-07,-6.00739e-06,-3.09335e-06,-1.14111e-05,1.72412e-06,-1.23508e-08,-3.53428e-09,1.16577e-06,1.74952e-06
5.406,-1.70666e-07,-5.95619e-06,-3.10178e-06,-1.15054e-05,1.74115e-06,-1.24409e-08,-3.54673e-09,1.17098e-06,1.75648e-06
5.426,-1.70376e-07,-5.95485e-06,-3.0981e-06,-1.14926e-05,1.73903e-06,-1.24278e-08,-3.54442e-09,1.17619e-06,1.76342e-06
5.446,-1.70099e-07,-5.94565e-06,-3.09218e-06,-1.14837e-05,1.73545e-06,-1.24164e-08,-3.54206e-09,1.18139e-06,1.77036e-06
5.466,-1.7691e-07,7.80955e-06,-3.27504e-06,-1.22104e-05,1.86679e-06,-1.32223e-08,-3.59527e-09,1.18643e-06,1.77759e-06
5.486,-1.71954e-07,-5.98563e-06,-3.12495e-06,-1.15638e-05,1.75567e-06,-1.25071e-08,-3.55918e-09,1.19162e-06,1.78453e-06
5.506,-1.52236e-07,8.74277e-06,-3.30846e-06,-1.08044e-05,1.66658e-06,-1.1799e-08,-3.59521e-09,1.19659e-06,1.79162e-06
5.526,-1.52631e-07,8.84415e-06,-3.31906e-06,-1.0879e-05,1.67877e-06,-1.1872e-08,-3.61807e-09,1.20185e-06,1.79861e-06
5.546,-1.5282e-07,8.8465e-06,-3.32573e-06,-1.09268e-05,1.68721e-06,-1.19199e-08,-3.63105e-09,1.2071e-06,1.80562e-06
5.566,-1.53009e-07,8.84867e-06,-3.33238e-06,-1.09746e-05,1.69571e-06,-1.19676e-08,-3.64393e-09,1.21236e-06,1.81264e-06
5.586,-1.53204e-07,8.85094e-06,-3.33911e-06,-1.10226e-05,1.70433e-06,-1.20157e-08,-3.65691e-09,1.21761e-06,1.81967e-06
5.606,-1.53404e-07,8.85331e-06,-3.34591e-06,-1.10711e-05,1.71308e-06,-1.20641e-08,-3.66997e-09,1.22287e-06,1.82672e-06
5.626,-1.53611e-07,8.85578e-06,-3.3528e-06,-1.11198e-05,1.72196e-06,-1.21129e-08,-3.68312e-09,1.22813e-06,1.83378e-06
5.646,-1.56664e-07,-6.22163e-06,-3.34871e-06,-1.06809e-05,1.68741e-06,-1.17345e-08,-3.68729e-09,1.23313e-06,1.84097e-06
5.666,-1.52666e-07,8.84851e-06,-3.3165e-06,-1.08538e-05,1.6754e-06,-1.18479e-08,-3.61504e-09,1.23839e-06,1.84796e-06
5.686,-1.52731e-07,8.84561e-06,-3.32244e-06,-1.09029e-05,1.68301e-06,-1.1896e-08,-3.62471e-09,1.24364e-06,1.85496e-06
5.706,-1.52913e-07,8.84757e-06,-3.32903e-06,-1.09505e-05,1.69142e-06,-1.19436e-08,-3.63744e-09,1.2489e-06,1.86197e-06
5.726,-1.53105e-07,8.84979e-06,-3.33571e-06,-1.09984e-05,1.69997e-06,-1.19915e-08,-3.65037e-09,1.25416e-06,1.869e-06
5.746,1.54901e-07,8.38676e-06,-3.26453e-06,-1.06046e-05,-1.38044e-06,-1.15986e-08,-3.75146e-09,1.25947e-06,1.87614e-06
5.766,1.55557e-07,8.44803e-06,-3.37566e-06,-1.13193e-05,-1.37776e-06,-1.23126e-08,-3.73845e-09,1.26472e-06,1.88324e-06
5.786,1.55856e-07,8.45405e-06,-3.38474e-06,-1.13813e-05,-1.38277e-06,-1.23745e-08,-3.7514e-09,1.26994e-06,1.89034e-06
5.806,1.50422e-07,7.52998e-06,-3.2134e-06,-1.21529e-05,-1.32244e-06,-1.31288e-08,-3.57761e-09,1.27518e-06,1.89745e-06
5.826,-1.95387e-07,-5.95349e-06,-3.10755e-06,-1.14731e-05,-1.60334e-06,-1.24065e-08,-3.54191e-09,1.28036e-06,1.90436e-06
5.846,-1.95421e-07,-5.95604e-06,-3.1087e-06,-1.14626e-05,-1.60418e-06,-1.23963e-08,-3.54237e-09,1.2856e-06,1.91134e-06
5.866,-1.52212e-07,8.73497e-06,-3.29272e-06,-1.07453e-05,1.6644e-06,-1.1739e-08,-3.59539e-09,1.29054e-06,1.91839e-06
5.886,-1.5263e-07,8.84401e-06,-3.31882e-06,-1.0878e-05,1.67871e-06,-1.18711e-08,-3.61803e-09,1.2958e-06,1.92538e-06
5.906,-1.73226e-07,-6.0741e-06,-3.15416e-06,-1.15497e-05,1.76052e-06,-1.25072e-08,-3.56275e-09,1.30106e-06,1.93249e-06
5.926,-1.70921e-07,-5.97321e-06,-3.10994e-06,-1.15056e-05,1.74576e-06,-1.24461e-08,-3.54846e-09,1.30625e-06,1.93945e-06
5.946,-1.70687e-07,-5.9567e-06,-3.10204e-06,-1.15073e-05,1.74156e-06,-1.24429e-08,-3.54707e-09,1.31146e-06,1.94639e-06
5.966,-1.70377e-07,-5.95485e-06,-3.0981e-06,-1.14926e-05,1.73904e-06,-1.24279e-08,-3.54442e-09,1.31666e-06,1.95334e-06
5.986,-1.71408e-07,-5.97204e-06,-3.11478e-06,-1.15362e-05,1.74945e-06,-1.24758e-08,-3.55324e-09,1.32187e-06,1.9603e-06
6.006,-1.70633e-07,-5.95502e-06,-3.10142e-06,-1.15025e-05,1.74073e-06,-1.24379e-08,-3.54572e-09,1.32708e-06,1.96724e-06
6.026,-1.72115e-07,-5.98698e-06,-3.12735e-06,-1.15629e-05,1.75707e-06,-1.25064e-08,-3.55895e-09,1.33229e-06,1.97421e-06
6.046,-1.52236e-07,8.74279e-06,-3.30847e-06,-1.08044e-05,1.66657e-06,-1.1799e-08,-3.59519e-09,1.33726e-06,1.98129e-06
6.066,-1.52632e-07,8.84415e-06,-3.31906e-06,-1.0879e-05,1.67877e-06,-1.18721e-08,-3.61807e-09,1.34251e-06,1.98828e-06
6.086,-1.5282e-07,8.8465e-06,-3.32574e-06,-1.09268e-05,1.68721e-06,-1.19199e-08,-3.63105e-09,1.34777e-06,1.99529e-06
6.106,-1.7666e-07,7.8747e-06,-3.2731e-06,-1.21993e-05,1.8612e-06,-1.32046e-08,-3.60592e-09,1.35306e-06,2.00241e-06
6.126,-1.70256e-07,-5.95097e-06,-3.09547e-06,-1.14954e-05,1.73737e-06,-1.24296e-08,-3.54475e-09,1.35824e-06,2.00933e-06
6.146,1.61332e-07,8.37135e-06,-3.3568e-06,-1.18816e-05,-1.39605e-06,-1.29386e-08,-3.77752e-09,1.36327e-06,2.01664e-06
6.166,1.507e-07,6.62871e-06,-3.14842e-06,-1.15299e-05,-1.60415e-06,-1.25007e-08,-3.58444e-09,1.36835e-06,2.02356e-06
6.186,-1.96954e-07,-5.98033e-06,-3.12889e-06,-1.15173e-05,-1.60125e-06,-1.24572e-08,-3.55353e-09,1.37353e-06,2.03049e-06
6.206,-1.98518e-07,-6.00824e-06,-3.15397e-06,-1.15641e-05,-1.59843e-06,-1.25115e-08,-3.56405e-09,1.37879e-06,2.0375e-06
6.226,-2.00223e-07,-6.03906e-06,-3.17958e-06,-1.16185e-05,-1.59586e-06,-1.2574e-08,-3.57602e-09,1.38404e-06,2.04453e-06
6.246,-1.96337e-07,-5.98324e-06,-3.1264e-06,-1.14836e-05,-1.60487e-06,-1.24251e-08,-3.54843e-09,1.38927e-06,2.05152e-06
6.266,-2.28284e-07,8.38658e-06,-3.29306e-06,-1.0948e-05,2.16022e-06,-1.19576e-08,-3.82414e-09,1.39424e-06,2.05873e-06
6.286,-2.1496e-07,-6.1602e-06,-3.34493e-06,-1.09339e-05,2.02467e-06,-1.19772e-08,-3.62744e-09,1.39925e-06,2.06584e-06
6.306,-1.87926e-07,-8.39258e-06,-3.80401e-06,-1.37275e-05,2.2266e-06,-1.47352e-08,-3.63735e-09,1.40493e-06,2.07323e-06
6.326,1.60143e-07,7.33193e-06,-3.44213e-06,-1.22873e-05,-1.3836e-06,-1.33422e-08,-3.73523e-09,1.40989e-06,2.08015e-06
6.346,1.52126e-07,7.78175e-06,-3.09724e-06,-1.13212e-05,-1.34351e-06,-1.229e-08,-3.63785e-09,1.41496e-06,2.08702e-06
6.366,-1.95595e-07,-5.961e-06,-3.10888e-06,-1.14666e-05,-1.60554e-06,-1.24014e-08,-3.54518e-09,1.42015e-06,2.09394e-06
6.386,-1.52216e-07,8.73515e-06,-3.29274e-06,-1.07454e-05,1.66443e-06,-1.17392e-08,-3.5955e-09,1.42509e-06,2.10098e-06
6.406,-1.5263e-07,8.84401e-06,-3.31882e-06,-1.0878e-05,1.67871e-06,-1.18711e-08,-3.61803e-09,1.43034e-06,2.10798e-06
6.426,-1.52819e-07,8.84649e-06,-3.32571e-06,-1.09267e-05,1.68719e-06,-1.19198e-08,-3.63101e-09,1.4356e-06,2.11499e-06
6.446,-1.53009e-07,8.84867e-06,-3.33236e-06,-1.09744e-05,1.69568e-06,-1.19675e-08,-3.6439e-09,1.44086e-06,2.12201e-06
6.466,-1.81394e-07,8.15137e-06,-3.35513e-06,-1.23861e-05,1.9117e-06,-1.3418e-08,-3.64476e-09,1.44616e-06,2.12919e-06
6.486,-1.70076e-07,-5.94564e-06,-3.09339e-06,-1.14757e-05,1.73437e-06,-1.24095e-08,-3.53983e-09,1.45132e-06,2.13609e-06
6.506,-1.52207e-07,8.74131e-06,-3.30793e-06,-1.08029e-05,1.66633e-06,-1.17969e-08,-3.59456e-09,1.45632e-06,2.14318e-06
6.526,-1.70609e-07,-6.0191e-06,-3.10831e-06,-1.14442e-05,1.73176e-06,-1.23873e-08,-3.53941e-09,1.46156e-06,2.15026e-06
6.546,-1.72491e-07,-5.99515e-06,-3.13407e-06,-1.15759e-05,1.76098e-06,-1.25216e-08,-3.56201e-09,1.46678e-06,2.15723e-06
6.566,-1.73946e-07,-6.02615e-06,-3.15972e-06,-1.16319e-05,1.77694e-06,-1.25858e-08,-3.5741e-09,1.47199e-06,2.16421e-06
6.586,-1.52262e-07,8.74412e-06,-3.30895e-06,-1.08056e-05,1.66678e-06,-1.18007e-08,-3.59574e-09,1.47694e-06,2.17128e-06
6.606,-1.52633e-07,8.84419e-06,-3.31909e-06,-1.08791e-05,1.6788e-06,-1.18722e-08,-3.61813e-09,1.4822e-06,2.17828e-06
6.626,-1.5282e-07,8.8465e-06,-3.32576e-06,-1.0927e-05,1.68724e-06,-1.19201e-08,-3.63109e-09,1.48745e-06,2.18528e-06
6.646,-1.74748e-07,-6.10618e-06,-3.18073e-06,-1.16111e-05,1.77739e-06,-1.2577e-08,-3.57645e-09,1.49271e-06,2.19242e-06
6.666,-1.76513e-07,-6.08137e-06,-3.20505e-06,-1.17272e-05,1.80481e-06,-1.26956e-08,-3.59547e-09,1.49793e-06,2.19943e-06
6.686,-1.78e-07,-6.11319e-06,-3.23115e-06,-1.1784e-05,1.82129e-06,-1.27606e-08,-3.60793e-09,1.50314e-06,2.20645e-06
6.706,-1.56161e-07,-6.19219e-06,-3.34034e-06,-1.06426e-05,1.68374e-06,-1.17041e-08,-3.67096e-09,1.50802e-06,2.21351e-06
6.726,-1.77594e-07,7.89567e-06,-3.28096e-06,-1.22281e-05,1.87134e-06,-1.32407e-08,-3.61898e-09,1.51331e-06,2.22062e-06
6.746,-1.91133e-07,-6.78258e-06,-3.37288e-06,-1.15601e-05,1.94271e-06,-1.26127e-08,5.47164e-09,1.51865e-06,2.22798e-06
6.766,-1.88881e-07,8.70638e-06,-3.43297e-06,-1.21811e-05,1.95047e-06,-1.32247e-08,5.53546e-09,1.52383e-06,2.23513e-06
6.786,-1.56376e-07,-6.19929e-06,-3.33854e-06,-1.06582e-05,1.68488e-06,-1.17057e-08,4.88519e-09,1.52871e-06,2.24212e-06
6.806,-1.78495e-07,7.94533e-06,-3.29596e-06,-1.22635e-05,1.88096e-06,-1.32813e-08,5.32901e-09,1.534e-06,2.24924e-06
6.826,-1.56505e-07,-6.20471e-06,-3.34385e-06,-1.06989e-05,1.68876e-06,-1.17507e-08,4.89577e-09,1.53893e-06,2.25629e-06
6.846,-1.7762e-07,7.89672e-06,-3.28126e-06,-1.22298e-05,1.87166e-06,-1.32425e-08,5.31019e-09,1.54422e-06,2.2634e-06
6.866,-1.70277e-07,-5.9518e-06,-3.09571e-06,-1.14962e-05,1.73756e-06,-1.24306e-08,5.10521e-09,1.54941e-06,2.27032e-06
6.886,-1.70098e-07,-5.94563e-06,-3.09218e-06,-1.14837e-05,1.73543e-06,-1.24165e-08,5.10005e-09,1.55461e-06,2.27726e-06
6.906,-1.93292e-07,-6.4954e-06,-3.84737e-06,-1.32027e-05,2.11887e-06,-1.43324e-08,5.81465e-09,1.55989e-06,2.2847e-06
6.926,1.56641e-07,-6.43081e-06,-3.40551e-06,-1.15524e-05,-1.39468e-06,-1.25471e-08,5.24501e-09,1.5648e-06,2.29152e-06
6.946,1.49435e-07,8.27611e-06,-3.49612e-06,-1.24617e-05,1.30816e-06,-1.34108e-08,5.50442e-09,1.57027e-06,2.29887e-06
6.966,1.51352e-07,-6.35282e-06,-3.2637e-06,-1.13098e-05,-1.38388e-06,-1.22508e-08,5.13258e-09,1.57522e-06,2.30563e-06
6.986,1.52555e-07,7.8206e-06,-3.25575e-06,-1.22776e-05,-1.33659e-06,-1.32941e-08,5.31576e-09,1.58028e-06,2.31289e-06
7.006,-1.98129e-07,-6.00258e-06,-3.14772e-06,-1.15646e-05,-1.59985e-06,-1.25108e-08,5.14947e-09,1.58546e-06,2.31983e-06
7.026,-1.77259e-07,7.82424e-06,-3.26364e-06,-1.21413e-05,1.8631e-06,-1.31549e-08,5.28232e-09,1.59041e-06,2.32699e-06
7.046,-1.93573e-07,-6.4972e-06,-3.8512e-06,-1.32256e-05,2.12728e-06,-1.4357e-08,5.82588e-09,1.59567e-06,2.33441e-06
7.066,1.56338e-07,-6.40622e-06,-3.39866e-06,-1.15052e-05,-1.38973e-06,-1.25e-08,5.21484e-09,1.60057e-06,2.34121e-06
7.086,1.56628e-07,-6.43302e-06,-3.40215e-06,-1.15007e-05,-1.39518e-06,-1.2494e-08,5.24031e-09,1.60578e-06,2.34833e-06
7.106,1.57882e-07,8.43234e-06,-3.30274e-06,-1.08927e-05,-1.40766e-06,-1.18912e-08,-3.82016e-09,1.61101e-06,2.35548e-06
7.126,1.55452e-07,-6.15009e-06,-3.37706e-06,-1.08815e-05,-1.33791e-06,-1.19235e-08,-3.64182e-09,1.61608e-06,2.36264e-06
7.146,1.52877e-07,8.85659e-06,-3.31217e-06,-1.08688e-05,-1.32936e-06,-1.1851e-08,0.0258762,1.62128e-06,2.36958e-06
7.166,1.52903e-07,8.84988e-06,-3.3122e-06,-1.09228e-05,-1.3314e-06,-1.18594e-08,0.156677,1.6265e-06,2.37655e-06
7.186,1.52345e-07,8.82154e-06,-3.30572e-06,-1.09693e-05,-1.32561e-06,-1.19094e-08,0.299251,1.63172e-06,2.38352e-06
7.206,1.51729e-07,8.79051e-06,-3.30152e-06,-1.10093e-05,-1.31941e-06,-1.1981e-08,0.377817,1.63693e-06,2.39052e-06
7.226,1.51296e-07,8.76589e-06,-3.30049e-06,-1.10497e-05,-1.31555e-06,-1.20522e-08,0.428537,1.64216e-06,2.39752e-06
7.246,1.51309e-07,8.75819e-06,-3.30444e-06,-1.10954e-05,-1.3175e-06,-1.21069e-08,0.432764,1.64738e-06,2.40454e-06
7.266,1.51754e-07,8.76698e-06,-3.31287e-06,-1.11467e-05,-1.32476e-06,-1.21481e-08,0.413697,1.6526e-06,2.41158e-06
7.286,1.54185e-07,-6.12124e-06,-3.30234e-06,-1.05265e-05,1.98544e-06,-1.16076e-08,0.407602,1.65748e-06,2.41875e-06
7.306,-1.93629e-07,-5.93719e-06,-3.06791e-06,-1.13489e-05,1.71333e-06,-1.22927e-08,0.418051,1.66268e-06,2.42578e-06
7.326,-1.95675e-07,-5.91222e-06,-3.11324e-06,-1.15541e-05,1.75051e-06,-1.24931e-08,0.398458,1.66794e-06,2.4328e-06
7.346,-1.93629e-07,-5.88528e-06,-3.08017e-06,-1.14683e-05,1.73025e-06,-1.23747e-08,0.331226,1.67318e-06,2.43978e-06
7.366,-1.93892e-07,-5.90677e-06,-3.08109e-06,-1.14582e-05,1.73182e-06,-1.2343e-08,0.244124,1.67843e-06,2.44676e-06
7.386,-1.96126e-07,-5.9558e-06,-3.11257e-06,-1.15164e-05,1.75108e-06,-1.24037e-08,0.171466,1.68368e-06,2.45376e-06
7.406,-1.98169e-07,-5.99791e-06,-3.14368e-06,-1.15706e-05,1.76924e-06,-1.24732e-08,0.115362,1.68894e-06,2.46078e-06
7.426,-1.95016e-07,-5.94473e-06,-3.09846e-06,-1.14543e-05,1.73956e-06,-1.23492e-08,0.0885518,1.69417e-06,2.46775e-06
7.446,-1.95222e-07,-5.95015e-06,-3.10121e-06,-1.14698e-05,1.74228e-06,-1.23544e-08,0.124486,1.69942e-06,2.47473e-06
7.466,-2.15626e-07,-6.19905e-06,-3.30519e-06,-1.07446e-05,1.71263e-06,-1.17368e-08,0.191033,1.70438e-06,2.48181e-06
7.486,-1.90923e-07,-6.47781e-06,-3.80819e-06,-1.30805e-05,2.08345e-06,-1.41328e-08,0.239837,1.70967e-06,2.48932e-06
7.506,1.43839e-07,7.74375e-06,-3.99801e-06,-1.32601e-05,1.31782e-06,-1.41841e-08,0.265893,1.71523e-06,2.49675e-06
7.526,1.46293e-07,-5.8772e-06,-3.05265e-06,-1.16275e-05,-1.2961e-06,-1.25058e-08,0.299964,1.72004e-06,2.5033e-06
7.546,-1.93625e-07,-5.89472e-06,-3.0783e-06,-1.14721e-05,-1.57025e-06,-1.23653e-08,0.338641,1.72524e-06,2.51023e-06
7.566,-1.93672e-07,-5.88578e-06,-3.0805e-06,-1.14775e-05,-1.5613e-06,-1.23863e-08,0.376953,1.73049e-06,2.51723e-06
7.586,-1.94907e-07,-5.90028e-06,-3.10119e-06,-1.1529e-05,-1.55054e-06,-1.24614e-08,0.413207,1.73574e-06,2.52423e-06
7.606,-1.4951e-07,8.63151e-06,-3.25327e-06,-1.07335e-05,1.63645e-06,-1.17528e-08,0.44831,1.74066e-06,2.53127e-06
7.626,-1.49648e-07,8.72727e-06,-3.27636e-06,-1.08624e-05,1.64834e-06,-1.18911e-08,0.455095,1.74592e-06,2.53827e-06
7.646,-1.50152e-07,8.74273e-06,-3.28643e-06,-1.09156e-05,1.6605e-06,-1.19231e-08,0.408168,1.75118e-06,2.54528e-06
7.666,-1.51059e-07,8.77383e-06,-3.30085e-06,-1.09723e-05,1.67645e-06,-1.19463e-08,0.336472,1.75644e-06,2.5523e-06
7.686,-1.51866e-07,8.80037e-06,-3.31476e-06,-1.1027e-05,1.69117e-06,-1.19795e-08,0.28038,1.7617e-06,2.55934e-06
7.706,-1.81273e-07,8.17578e-06,-3.35094e-06,-1.24301e-05,1.91361e-06,-1.3402e-08,0.243289,1.76701e-06,2.56654e-06
7.726,-1.55519e-07,-6.16973e-06,-3.32647e-06,-1.06571e-05,1.67707e-06,-1.16695e-08,0.207765,1.77188e-06,2.57359e-06
7.746,-1.52108e-07,8.82783e-06,-3.30316e-06,-1.08626e-05,1.66984e-06,-1.18061e-08,0.184417,1.77713e-06,2.58058e-06
7.766,-1.52283e-07,8.82923e-06,-3.31081e-06,-1.09127e-05,1.67858e-06,-1.1855e-08,0.168806,1.78239e-06,2.58758e-06
7.786,-1.73612e-07,-6.07663e-06,-3.15573e-06,-1.15894e-05,1.76586e-06,-1.24972e-08,0.150269,1.78764e-06,2.5947e-06
7.806,-1.75507e-07,-6.05619e-06,-3.18245e-06,-1.17081e-05,1.79456e-06,-1.2622e-08,0.127246,1.79286e-06,2.60171e-06
7.826,-1.92477e-07,-6.47623e-06,-3.82865e-06,-1.31823e-05,2.11091e-06,-1.42482e-08,0.137024,1.79811e-06,2.60911e-06
7.846,1.55957e-07,-6.17892e-06,-3.32001e-06,-1.0501e-05,-1.33761e-06,-1.15225e-08,0.205567,1.80261e-06,2.61591e-06
7.866,1.51814e-07,8.81779e-06,-3.29079e-06,-1.08628e-05,-1.31507e-06,-1.1809e-08,0.300463,1.80783e-06,2.62286e-06
7.886,1.51169e-07,8.78575e-06,-3.28773e-06,-1.09082e-05,-1.30888e-06,-1.18821e-08,0.378071,1.81305e-06,2.62982e-06
7.906,1.49537e-07,7.75123e-06,-3.20423e-06,-1.22665e-05,-1.30399e-06,-1.32561e-08,0.434687,1.81829e-06,2.6369e-06
7.926,-1.9259e-07,-5.84565e-06,-3.07059e-06,-1.14835e-05,-1.53845e-06,-1.24447e-08,0.467184,1.82347e-06,2.64382e-06
7.946,-1.92049e-07,-5.84084e-06,-3.06444e-06,-1.14505e-05,-1.54094e-06,-1.24054e-08,0.445155,1.82872e-06,2.65081e-06
7.966,-1.92339e-07,-5.85284e-06,-3.06429e-06,-1.14474e-05,-1.55149e-06,-1.23751e-08,0.395884,1.83397e-06,2.6578e-06
7.986,-2.1372e-07,-6.13707e-06,-3.28311e-06,-1.07295e-05,2.01363e-06,-1.17704e-08,0.361848,1.83894e-06,2.66487e-06
8.006,-1.50836e-07,8.77911e-06,-3.28629e-06,-1.08579e-05,1.65709e-06,-1.18315e-08,0.3474,1.84417e-06,2.67183e-06
8.026,-1.51166e-07,8.78579e-06,-3.29555e-06,-1.09045e-05,1.66733e-06,-1.18666e-08,0.30664,1.84943e-06,2.67884e-06
8.046,-1.51905e-07,8.80972e-06,-3.30913e-06,-1.09568e-05,1.68156e-06,-1.19054e-08,0.226296,1.85468e-06,2.68585e-06
8.066,-1.80561e-07,8.1064e-06,-3.33467e-06,-1.23768e-05,1.90424e-06,-1.33572e-08,0.130054,1.85999e-06,2.69303e-06
8.086,-1.77314e-07,-6.09946e-06,-3.21629e-06,-1.17731e-05,1.81434e-06,-1.27241e-08,0.0459924,1.86519e-06,2.70003e-06
8.106,-1.71617e-07,-5.99618e-06,-3.12494e-06,-1.15244e-05,1.7548e-06,-1.24837e-08,-0.0238566,1.87037e-06,2.70698e-06
8.126,-1.52202e-07,8.74115e-06,-3.31008e-06,-1.0799e-05,1.66621e-06,-1.18166e-08,-0.0393293,1.87535e-06,2.71407e-06
8.146,-1.52623e-07,8.84385e-06,-3.31842e-06,-1.0881e-05,1.67863e-06,-1.18506e-08,0.0523695,1.88061e-06,2.72106e-06
8.166,-1.56418e-07,-6.21319e-06,-3.34043e-06,-1.06897e-05,1.68409e-06,-1.16832e-08,0.194562,1.88562e-06,2.72827e-06
8.186,-1.76448e-07,7.85228e-06,-3.25791e-06,-1.22359e-05,1.8618e-06,-1.31854e-08,0.305927,1.89092e-06,2.73538e-06
8.206,-1.68585e-07,-5.88802e-06,-3.06711e-06,-1.15038e-05,1.7237e-06,-1.24088e-08,0.378513,1.8961e-06,2.74231e-06
8.226,-1.67431e-07,-5.84552e-06,-3.05042e-06,-1.14746e-05,1.71232e-06,-1.24071e-08,0.433542,1.90131e-06,2.74926e-06
8.246,-1.67291e-07,-5.83917e-06,-3.05036e-06,-1.14766e-05,1.71221e-06,-1.24206e-08,0.438568,1.90652e-06,2.75621e-06
8.266,-1.53827e-07,-6.10404e-06,-3.30207e-06,-1.06897e-05,1.66154e-06,-1.17566e-08,0.416544,1.91149e-06,2.76329e-06
8.286,-1.75124e-07,7.79941e-06,-3.242e-06,-1.22251e-05,1.85217e-06,-1.32199e-08,0.407896,1.91679e-06,2.77041e-06
8.306,-1.54089e-07,-6.11433e-06,-3.30605e-06,-1.07015e-05,1.66389e-06,-1.17645e-08,0.418051,1.92174e-06,2.77746e-06
8.326,-1.50233e-07,8.75404e-06,-3.27985e-06,-1.08457e-05,1.65073e-06,-1.18461e-08,0.398458,1.92699e-06,2.78445e-06
8.346,-1.5083e-07,8.77247e-06,-3.29164e-06,-1.09007e-05,1.66406e-06,-1.18746e-08,0.331226,1.93225e-06,2.79145e-06
8.366,-1.51764e-07,8.80424e-06,-3.30727e-06,-1.09557e-05,1.68017e-06,-1.19066e-08,0.244124,1.93751e-06,2.79847e-06
8.386,-1.5252e-07,8.82834e-06,-3.32178e-06,-1.10072e-05,1.69432e-06,-1.19517e-08,0.171466,1.94277e-06,2.8055e-06
8.406,-1.53023e-07,8.84225e-06,-3.3337e-06,-1.10554e-05,1.70601e-06,-1.20061e-08,0.115362,1.94803e-06,2.81254e-06
8.426,-1.78433e-07,-6.18221e-06,-3.24074e-06,-1.17709e-05,1.81898e-06,-1.27169e-08,0.0885518,1.9533e-06,2.81972e-06
8.446,-1.80064e-07,-6.15589e-06,-3.26298e-06,-1.18748e-05,1.84433e-06,-1.28101e-08,0.124486,1.95852e-06,2.82676e-06
8.466,-1.55995e-07,-6.18575e-06,-3.32867e-06,-1.06919e-05,1.6824e-06,-1.16814e-08,0.191033,1.96344e-06,2.83379e-06
8.486,-1.56011e-07,-6.19842e-06,-3.33288e-06,-1.06843e-05,1.67965e-06,-1.16867e-08,0.239837,1.96846e-06,2.841e-06
8.506,-1.69684e-07,-5.98572e-06,-3.08677e-06,-1.14477e-05,1.72324e-06,-1.23351e-08,0.265893,1.97371e-06,2.84808e-06
8.526,-1.71206e-07,-5.94812e-06,-3.10856e-06,-1.15805e-05,1.74988e-06,-1.24727e-08,0.299964,1.97893e-06,2.85505e-06
8.546,-1.72307e-07,-5.96556e-06,-3.12968e-06,-1.16337e-05,1.76294e-06,-1.25426e-08,0.338641,1.98414e-06,2.86204e-06
8.566,-1.68946e-07,-5.89931e-06,-3.07657e-06,-1.15065e-05,1.72923e-06,-1.24194e-08,0.376953,1.98934e-06,2.86899e-06
8.586,-1.67653e-07,-5.85408e-06,-3.05284e-06,-1.14771e-05,1.71432e-06,-1.23998e-08,0.413207,1.99454e-06,2.87594e-06
8.606,-1.68511e-07,-5.86296e-06,-3.07048e-06,-1.15243e-05,1.7246e-06,-1.24719e-08,0.44831,1.99976e-06,2.8829e-06
8.626,-1.89963e-07,-6.37219e-06,-3.79019e-06,-1.31783e-05,2.09768e-06,-1.42849e-08,0.455095,2.00503e-06,2.89033e-06
8.646,1.4877e-07,-6.24938e-06,-3.22576e-06,-1.13267e-05,-1.3497e-06,-1.22799e-08,0.408168,2.00994e-06,2.89705e-06
8.666,1.50567e-07,8.67959e-06,-3.2759e-06,-1.08049e-05,-1.29845e-06,-1.17836e-08,0.336472,2.01497e-06,2.90419e-06
8.686,1.51559e-07,8.80381e-06,-3.29089e-06,-1.08932e-05,-1.31381e-06,-1.18486e-08,0.28038,2.02019e-06,2.91115e-06
8.706,1.52173e-07,8.81935e-06,-3.30184e-06,-1.09444e-05,-1.32325e-06,-1.18908e-08,0.243289,2.02541e-06,2.91812e-06
8.726,-2.15566e-07,-6.21168e-06,-3.29169e-06,-1.06818e-05,2.02423e-06,-1.16903e-08,0.207765,2.03032e-06,2.92522e-06
8.746,-1.52123e-07,8.82939e-06,-3.3029e-06,-1.08672e-05,1.67014e-06,-1.18107e-08,0.184417,2.03555e-06,2.93218e-06
8.766,-1.52281e-07,8.82924e-06,-3.31073e-06,-1.09121e-05,1.67847e-06,-1.18545e-08,0.168806,2.04081e-06,2.93919e-06
8.786,-1.56278e-07,-6.20901e-06,-3.33953e-06,-1.06732e-05,1.68258e-06,-1.16854e-08,0.150269,2.04579e-06,2.9464e-06
8.806,-1.52399e-07,8.83898e-06,-3.30809e-06,-1.08622e-05,1.67272e-06,-1.1812e-08,0.127246,2.05105e-06,2.95339e-06
8.826,-1.52494e-07,8.83728e-06,-3.31455e-06,-1.09121e-05,1.68059e-06,-1.18565e-08,0.137024,2.0563e-06,2.96039e-06
8.846,-1.76332e-07,7.85991e-06,-3.26114e-06,-1.22154e-05,1.85898e-06,-1.31548e-08,0.205567,2.0616e-06,2.96751e-06
8.866,-1.72959e-07,-6.49952e-06,-3.06452e-06,-1.08783e-05,1.75264e-06,-1.17977e-08,0.300463,2.06686e-06,2.97469e-06
8.886,-1.68284e-07,-5.87963e-06,-3.05848e-06,-1.14735e-05,1.71852e-06,-1.23765e-08,0.378071,2.07206e-06,2.98163e-06
8.906,-1.6762e-07,-5.85201e-06,-3.05387e-06,-1.14803e-05,1.71455e-06,-1.24124e-08,0.434687,2.07727e-06,2.98858e-06
8.926,-1.90347e-07,-6.37353e-06,-3.79499e-06,-1.3195e-05,2.10334e-06,-1.43066e-08,0.467184,2.08256e-06,2.99603e-06
8.946,-1.53067e-07,-6.0804e-06,-3.29694e-06,-1.05662e-05,-1.30349e-06,-1.16819e-08,0.445155,2.08711e-06,3.00288e-06
8.966,-1.50173e-07,8.75123e-06,-3.27909e-06,-1.08437e-05,-1.29619e-06,-1.18454e-08,0.395884,2.09236e-06,3.00986e-06
8.986,-1.50712e-07,8.7677e-06,-3.29037e-06,-1.09007e-05,-1.30624e-06,-1.18801e-08,0.361848,2.09762e-06,3.01687e-06
9.006,-1.78228e-07,7.98884e-06,-3.29737e-06,-1.23357e-05,-1.32125e-06,-1.33185e-08,0.3474,2.10293e-06,3.02403e-06
9.026,-1.50844e-07,8.69268e-06,-3.28593e-06,-1.08197e-05,1.65259e-06,-1.17863e-08,0.30664,2.10786e-06,3.03109e-06
9.046,-1.68909e-07,-5.97248e-06,-3.07587e-06,-1.14228e-05,1.71705e-06,-1.23141e-08,0.226296,2.1131e-06,3.03816e-06
9.066,-1.51786e-07,8.72626e-06,-3.29683e-06,-1.08097e-05,1.66218e-06,-1.17633e-08,0.130054,2.1181e-06,3.04526e-06
9.086,-1.69871e-07,-6.00871e-06,-3.09327e-06,-1.14221e-05,1.72502e-06,-1.23417e-08,0.0459924,2.12334e-06,3.05233e-06
9.106,-1.71396e-07,-5.97191e-06,-3.11434e-06,-1.15348e-05,1.74916e-06,-1.24747e-08,-3.55e-09,2.12856e-06,3.05929e-06
9.126,-1.70512e-07,-5.95938e-06,-3.10101e-06,-1.14962e-05,1.74074e-06,-1.24328e-08,-3.54537e-09,2.13376e-06,3.06624e-06
9.146,-1.71412e-07,-5.97216e-06,-3.11483e-06,-1.15363e-05,1.74949e-06,-1.24759e-08,-3.5533e-09,2.13897e-06,3.0732e-06
9.166,-1.72837e-07,-6.00243e-06,-3.14012e-06,-1.15902e-05,1.7649e-06,-1.25378e-08,-3.56494e-09,2.14418e-06,3.08017e-06
9.186,-1.706e-07,-5.95402e-06,-3.10104e-06,-1.14982e-05,1.74013e-06,-1.24336e-08,-3.5447e-09,2.14938e-06,3.08711e-06
9.206,-1.70375e-07,-5.95479e-06,-3.09808e-06,-1.14924e-05,1.73901e-06,-1.24277e-08,-3.54437e-09,2.15458e-06,3.09406e-06
9.226,-1.56455e-07,-6.20216e-06,-3.34116e-06,-1.07063e-05,1.68897e-06,-1.17528e-08,-3.68749e-09,2.15955e-06,3.10113e-06
9.246,-1.52656e-07,8.84829e-06,-3.31638e-06,-1.08544e-05,1.67539e-06,-1.18485e-08,-3.61482e-09,2.1648e-06,3.10812e-06
9.266,-1.5273e-07,8.84559e-06,-3.32244e-06,-1.09029e-05,1.68301e-06,-1.18961e-08,-3.6247e-09,2.17006e-06,3.11512e-06
9.286,-1.52913e-07,8.84757e-06,-3.32903e-06,-1.09505e-05,1.69142e-06,-1.19436e-08,-3.63745e-09,2.17532e-06,3.12213e-06
9.306,-1.53105e-07,8.84979e-06,-3.33571e-06,-1.09984e-05,1.69998e-06,-1.19915e-08,-3.65037e-09,2.18057e-06,3.12916e-06
9.326,-1.53303e-07,8.85211e-06,-3.34248e-06,-1.10466e-05,1.70866e-06,-1.20397e-08,-3.66339e-09,2.18583e-06,3.1362e-06
9.346,-1.70671e-07,-6.02008e-06,-3.10885e-06,-1.14504e-05,1.73316e-06,-1.23928e-08,-3.54093e-09,2.19107e-06,3.14326e-06
9.366,-1.72492e-07,-5.99517e-06,-3.13409e-06,-1.1576e-05,1.76101e-06,-1.25218e-08,-3.56203e-09,2.19629e-06,3.15024e-06
9.386,-1.73947e-07,-6.02616e-06,-3.15973e-06,-1.16319e-05,1.77695e-06,-1.25858e-08,-3.57411e-09,2.2015e-06,3.15722e-06
9.406,-1.75406e-07,-6.05743e-06,-3.18549e-06,-1.16868e-05,1.79286e-06,-1.26489e-08,-3.58623e-09,2.20672e-06,3.16422e-06
9.426,-1.76879e-07,-6.08905e-06,-3.21142e-06,-1.1742e-05,1.80898e-06,-1.27124e-08,-3.59853e-09,2.21193e-06,3.17123e-06
9.446,-1.78364e-07,-6.12102e-06,-3.23755e-06,-1.17976e-05,1.8253e-06,-1.27763e-08,-3.61099e-09,2.21714e-06,3.17825e-06
9.466,-1.79863e-07,-6.15334e-06,-3.26386e-06,-1.18536e-05,1.84185e-06,-1.28407e-08,-3.62363e-09,2.22236e-06,3.18529e-06
9.486,-1.81375e-07,-6.18602e-06,-3.29036e-06,-1.191e-05,1.85861e-06,-1.29055e-08,-3.63645e-09,2.22757e-06,3.19234e-06
9.506,-1.93685e-07,-6.4569e-06,-3.84083e-06,-1.32313e-05,2.1566e-06,-1.43503e-08,-3.63331e-09,2.23287e-06,3.19977e-06
9.526,1.57982e-07,8.85907e-06,-3.2861e-06,-1.08283e-05,-1.41001e-06,-1.18269e-08,-3.82685e-09,2.23771e-06,3.20644e-06
9.546,1.51783e-07,7.9359e-06,-3.45647e-06,-1.2166e-05,1.32915e-06,-1.31195e-08,-3.57605e-09,2.24331e-06,3.21377e-06
9.566,1.60155e-07,7.33469e-06,-3.44191e-06,-1.22626e-05,-1.38323e-06,-1.33178e-08,-3.73419e-09,2.24832e-06,3.22075e-06
9.586,-1.96106e-07,-6.02094e-06,-3.09877e-06,-1.13735e-05,-1.6045e-06,-1.23118e-08,-3.54143e-09,2.25333e-06,3.22755e-06
9.606,-1.97861e-07,-5.99645e-06,-3.14391e-06,-1.15414e-05,-1.59947e-06,-1.24858e-08,-3.55938e-09,2.25858e-06,3.23456e-06
9.626,-1.99571e-07,-6.02726e-06,-3.1698e-06,-1.15976e-05,-1.59682e-06,-1.25501e-08,-3.57143e-09,2.26384e-06,3.24158e-06
9.646,-1.96219e-07,-5.97976e-06,-3.12414e-06,-1.14809e-05,-1.60477e-06,-1.24214e-08,-3.54765e-09,2.26907e-06,3.24857e-06
9.666,-1.95268e-07,-5.9516e-06,-3.10577e-06,-1.1457e-05,-1.60399e-06,-1.23896e-08,-3.54112e-09,2.27431e-06,3.25555e-06
9.686,-1.95418e-07,-5.95597e-06,-3.10866e-06,-1.14622e-05,-1.60417e-06,-1.2396e-08,-3.54233e-09,2.27956e-06,3.26253e-06
9.706,-1.76904e-07,7.80535e-06,-3.25774e-06,-1.21265e-05,1.85934e-06,-1.31376e-08,-3.59694e-09,2.28454e-06,3.26971e-06
9.726,-1.56558e-07,-6.2064e-06,-3.34348e-06,-1.07114e-05,1.68976e-06,-1.17593e-08,-3.68974e-09,2.28948e-06,3.27676e-06
9.746,-1.6983e-07,-6.00796e-06,-3.09383e-06,-1.14063e-05,1.72331e-06,-1.23461e-08,-3.53448e-09,2.29472e-06,3.28382e-06
9.766,-1.77192e-07,7.82523e-06,-3.27984e-06,-1.222e-05,1.8697e-06,-1.32337e-08,-3.59739e-09,2.29976e-06,3.29106e-06
9.786,-1.56525e-07,-6.2117e-06,-3.34745e-06,-1.07643e-05,1.69934e-06,-1.18122e-08,-3.7025e-09,2.30471e-06,3.29811e-06
9.806,-1.5293e-07,8.85115e-06,-3.32629e-06,-1.09262e-05,1.68804e-06,-1.19202e-08,-3.63416e-09,2.30996e-06,3.30512e-06
9.826,-1.87198e-07,-8.29484e-06,-3.79558e-06,-1.36658e-05,2.21115e-06,-1.46759e-08,-3.62386e-09,2.31565e-06,3.31256e-06
9.846,1.55679e-07,-6.35596e-06,-3.38626e-06,-1.1413e-05,-1.37941e-06,-1.24067e-08,-3.74357e-09,2.32057e-06,3.31935e-06
9.866,1.58403e-07,-6.64634e-06,-3.45479e-06,-1.27387e-05,-1.3722e-06,-1.37859e-08,-3.70471e-09,2.32588e-06,3.3266e-06
9.886,1.58972e-07,-6.6267e-06,-3.40761e-06,-1.21735e-05,-1.57413e-06,-1.3216e-08,-3.71612e-09,2.33104e-06,3.33367e-06
9.906,1.50548e-07,-6.39819e-06,-3.14656e-06,-1.15319e-05,-1.60265e-06,-1.25013e-08,-3.58159e-09,2.33611e-06,3.34057e-06
9.926,-1.96948e-07,-5.9801e-06,-3.12884e-06,-1.15172e-05,-1.60117e-06,-1.24572e-08,-3.55341e-09,2.34129e-06,3.3475e-06
9.946,-1.95893e-07,-5.96053e-06,-3.11486e-06,-1.14756e-05,-1.60187e-06,-1.24108e-08,-3.54461e-09,2.34653e-06,3.35448e-06
9.966,-1.77211e-07,7.8221e-06,-3.26289e-06,-1.21386e-05,1.8626e-06,-1.31516e-08,-3.59952e-09,2.35151e-06,3.36166e-06
9.986,-1.70554e-07,-5.96084e-06,-3.1015e-06,-1.15049e-05,1.74118e-06,-1.2442e-08,-3.54744e-09,2.35669e-06,3.36858e-06
10.006,-1.71413e-07,-5.97223e-06,-3.11485e-06,-1.15364e-05,1.7495e-06,-1.24761e-08,-3.55336e-09,2.3619e-06,3.37554e-06
10.026,-1.52226e-07,8.74229e-06,-3.30828e-06,-1.08039e-05,1.66649e-06,-1.17984e-08,-3.59498e-09,2.36687e-06,3.38263e-06
10.046,-1.52631e-07,8.84413e-06,-3.31905e-06,-1.08789e-05,1.67876e-06,-1.1872e-08,-3.61805e-09,2.37213e-06,3.38962e-06
10.066,-1.7698e-07,7.88066e-06,-3.27599e-06,-1.22115e-05,1.86501e-06,-1.32194e-08,-3.60983e-09,2.37742e-06,3.39674e-06
10.086,-1.71963e-07,-5.98603e-06,-3.12502e-06,-1.15638e-05,1.75572e-06,-1.25071e-08,-3.5595e-09,2.38262e-06,3.40368e-06
10.106,-1.70629e-07,-5.95494e-06,-3.10139e-06,-1.15016e-05,1.74062e-06,-1.24371e-08,-3.54556e-09,2.38782e-06,3.41062e-06
10.126,-1.70071e-07,-5.94479e-06,-3.09186e-06,-1.14811e-05,1.73502e-06,-1.24138e-08,-3.54136e-09,2.39302e-06,3.41756e-06
10.146,1.6133e-07,8.37125e-06,-3.35677e-06,-1.18815e-05,-1.39603e-06,-1.29386e-08,-3.77748e-09,2.39805e-06,3.42487e-06
10.166,1.6019e-07,7.3544e-06,-3.44052e-06,-1.22321e-05,-1.57456e-06,-1.32861e-08,-3.73489e-09,2.40322e-06,3.43198e-06
10.186,-1.95225e-07,-6.00809e-06,-3.08634e-06,-1.13432e-05,-1.60684e-06,-1.2278e-08,-3.53528e-09,2.40822e-06,3.43877e-06
10.206,-1.96788e-07,-5.97716e-06,-3.12777e-06,-1.15071e-05,-1.60121e-06,-1.24464e-08,-3.55192e-09,2.41347e-06,3.44577e-06
10.226,-1.95891e-07,-5.96049e-06,-3.11485e-06,-1.14755e-05,-1.60187e-06,-1.24107e-08,-3.54459e-09,2.41871e-06,3.45275e-06
10.246,-1.95909e-07,-5.96092e-06,-3.11502e-06,-1.14776e-05,-1.60207e-06,-1.24127e-08,-3.54505e-09,2.42396e-06,3.45974e-06
10.266,1.83844e-07,-6.42537e-06,-3.86998e-06,-1.30838e-05,-1.43445e-06,-1.42053e-08,-3.62242e-09,2.42931e-06,3.46723e-06
10.286,-1.99525e-07,-6.41436e-06,-3.23802e-06,-1.20664e-05,-1.57457e-06,-1.3034e-08,4.23928e-09,2.43426e-06,3.47404e-06
10.306,-1.52291e-07,8.73948e-06,-3.29549e-06,-1.0756e-05,1.6653e-06,-1.17507e-08,4.81397e-09,2.43918e-06,3.48107e-06
10.326,-2.1261e-07,-6.97752e-06,-4.3207e-06,-1.41931e-05,2.36833e-06,-1.52156e-08,-4.24676e-09,2.44535e-06,3.48897e-06
10.346,-0.00494771,-0.0022009,-2.92908e-06,-1.19066e-05,-0.00506416,-1.28671e-08,-0.0325227,2.44938e-06,3.49477e-06
10.366,-0.0149477,-0.00701059,-3.12514e-06,-1.12709e-05,-0.0150641,-1.23498e-08,-0.0994507,2.45376e-06,3.50125e-06
10.386,-0.0247836,-0.00898266,-3.13209e-06,-1.13486e-05,-0.0250641,-1.24528e-08,-0.108412,2.45837e-06,3.50761e-06
10.406,-0.0267934,-0.0162059,-2.92985e-06,-1.18238e-05,-0.0318017,-1.28928e-08,-0.110721,2.46297e-06,3.51406e-06
10.426,-0.0247357,-0.0262063,-3.61191e-06,-1.3361e-05,-0.0353766,-1.4622e-08,-0.112296,2.46763e-06,3.52087e-06
10.446,-0.0245107,-0.0362056,-3.34479e-06,-1.31581e-05,-0.0397386,-1.43561e-08,-0.114646,2.47213e-06,3.52732e-06
10.466,-0.0259252,-0.0434524,-3.10592e-06,-1.17366e-05,-0.0471635,-1.28239e-08,-0.116622,2.47661e-06,3.53363e-06
10.486,-0.0304281,-0.0433867,-3.13903e-06,-1.12442e-05,-0.0571634,-1.23875e-08,-0.116958,2.48104e-06,3.54017e-06
10.506,-0.0364049,-0.0403402,-3.14295e-06,-1.13309e-05,-0.0671634,-1.24895e-08,-0.116826,2.48565e-06,3.54653e-06
10.526,-0.0410024,-0.040262,-3.14693e-06,-1.13807e-05,-0.0771634,-1.25552e-08,-0.117311,2.49027e-06,3.5529e-06
10.546,-0.0466946,-0.0422035,-3.15189e-06,-1.14283e-05,-0.0871634,-1.26186e-08,-0.118627,2.49489e-06,3.55928e-06
10.566,-0.0550871,-0.0485232,-3.18281e-06,-1.11378e-05,-0.0971634,-1.24161e-08,-0.121954,2.49922e-06,3.56588e-06
10.586,-0.0636875,-0.0555549,-2.94392e-06,-1.18286e-05,-0.107163,-1.30087e-08,-0.125563,2.50384e-06,3.57233e-06
10.606,-0.0712393,-0.0608776,-2.96787e-06,-1.19562e-05,-0.117163,-1.31567e-08,-0.128394,2.50846e-06,3.57872e-06
10.626,-0.0781925,-0.0696983,-2.99359e-06,-1.20089e-05,-0.127163,-1.32357e-08,-0.132663,2.51308e-06,3.58511e-06
10.646,-0.0840488,-0.0796983,-3.02094e-06,-1.20579e-05,-0.137163,-1.33126e-08,-0.138571,2.51769e-06,3.59152e-06
10.666,-0.090004,-0.0896983,-3.04866e-06,-1.21068e-05,-0.147163,-1.33898e-08,-0.144168,2.52231e-06,3.59794e-06
10.686,-0.0962708,-0.0996983,-3.07633e-06,-1.21566e-05,-0.157163,-1.34675e-08,-0.149107,2.52693e-06,3.60437e-06
10.706,-0.101696,-0.102424,-3.10152e-06,-1.22096e-05,-0.167163,-1.35487e-08,-0.152727,2.53155e-06,3.61082e-06
10.726,-0.106588,-0.0924245,-3.11861e-06,-1.22759e-05,-0.177163,-1.36433e-08,-0.155198,2.53617e-06,3.61729e-06
10.746,-0.111773,-0.0824244,-3.13536e-06,-1.23428e-05,-0.187163,-1.37377e-08,-0.158187,2.5408e-06,3.62377e-06
10.766,-0.118168,-0.0724231,-3.14643e-06,-1.10877e-05,-0.197163,-1.25145e-08,-0.160732,2.54505e-06,3.63025e-06
10.786,-0.128026,-0.0624231,-3.098e-06,-1.13147e-05,-0.207163,-1.26673e-08,-0.160097,2.54968e-06,3.63662e-06
10.806,-0.138026,-0.0524232,-3.09231e-06,-1.13787e-05,-0.217163,-1.27373e-08,-0.158318,2.55432e-06,3.64301e-06
10.826,-0.148026,-0.0424231,-3.12005e-06,-1.12049e-05,-0.227163,-1.26312e-08,-0.157822,2.55874e-06,3.64962e-06
10.846,-0.158026,-0.0324247,-3.01562e-06,-1.26144e-05,-0.237163,-1.40267e-08,-0.15724,2.56342e-06,3.65612e-06
10.866,-0.168026,-0.0224246,-2.83784e-06,-1.19313e-05,-0.247163,-1.3256e-08,-0.156516,2.56804e-06,3.66249e-06
10.886,-0.178026,-0.0124231,-3.02902e-06,-1.13265e-05,-0.257163,-1.26808e-08,-0.155882,2.57249e-06,3.66903e-06
10.906,-0.188026,-0.00242459,-2.84038e-06,-1.19545e-05,-0.267163,-1.32937e-08,-0.155309,2.57716e-06,3.67556e-06
10.926,-0.198026,0.00757543,-2.8517e-06,-1.2094e-05,-0.273469,-1.34405e-08,-0.156414,2.58185e-06,3.68201e-06
10.946,-0.208026,0.0175769,-3.03267e-06,-1.12702e-05,-0.277937,-1.26802e-08,-0.159716,2.58628e-06,3.68859e-06
10.966,-0.218026,0.027575,-3.422e-06,-1.33843e-05,-0.281088,-1.49009e-08,-0.162677,2.59103e-06,3.69558e-06
10.986,-0.228026,0.0375762,-3.04889e-06,-1.21073e-05,-0.28136,-1.35098e-08,-0.164976,2.5955e-06,3.70196e-06
11.006,-0.238026,0.0475757,-2.90236e-06,-1.18807e-05,-0.279032,-1.32233e-08,-0.168037,2.60021e-06,3.7085e-06
11.026,-0.248026,0.0575753,-2.89612e-06,-1.26991e-05,-0.273973,-1.40831e-08,-0.171434,2.6048e-06,3.71529e-06
11.046,-0.258026,0.0675754,-2.7103e-06,-1.20187e-05,-0.270025,-1.33095e-08,-0.174594,2.60951e-06,3.72173e-06
11.066,-0.268026,0.0775754,-2.69568e-06,-1.20209e-05,-0.267411,-1.33061e-08,-0.177081,2.61425e-06,3.72821e-06
11.086,-0.278026,0.0875769,-2.93386e-06,-1.13402e-05,-0.267697,-1.2701e-08,-0.176762,2.61878e-06,3.73486e-06
11.106,-0.288026,0.0975754,-2.68349e-06,-1.20058e-05,-0.269262,-1.32821e-08,-0.175317,2.62355e-06,3.74146e-06
11.126,-0.298026,0.107575,-2.65689e-06,-1.20537e-05,-0.269569,-1.33124e-08,-0.175049,2.62832e-06,3.74798e-06
11.146,-0.308026,0.117575,-2.63334e-06,-1.20392e-05,-0.269741,-1.32838e-08,-0.174877,2.6331e-06,3.7545e-06
11.166,-0.318026,0.127577,-2.87622e-06,-1.13596e-05,-0.26972,-1.2674e-08,-0.174898,2.63769e-06,3.7612e-06
11.186,-0.328026,0.127953,-2.79759e-06,-1.28175e-05,-0.269586,-1.41382e-08,-0.175032,2.64253e-06,3.76786e-06
11.206,-0.338026,0.127957,-2.8624e-06,-1.1365e-05,-0.269565,-1.26686e-08,-0.175052,2.6471e-06,3.77455e-06
11.226,-0.348026,0.127957,-2.82588e-06,-1.14929e-05,-0.269565,-1.27417e-08,-0.175052,2.65193e-06,3.78111e-06
11.246,-0.356421,0.127956,-2.75801e-06,-1.27756e-05,-0.269565,-1.4069e-08,-0.175052,2.65679e-06,3.78779e-06
11.266,-0.356421,0.127956,-2.61475e-06,-1.21363e-05,-0.269565,-1.33633e-08,-0.175052,2.6616e-06,3.79436e-06
11.286,-0.356421,0.127957,-2.81012e-06,-1.14371e-05,-0.269565,-1.26741e-08,-0.175052,2.6662e-06,3.80107e-06
11.306,-0.356421,0.127957,-2.81846e-06,-1.15187e-05,-0.269565,-1.27626e-08,-0.175052,2.67104e-06,3.80765e-06
11.326,-0.356421,0.127956,-2.75458e-06,-1.27685e-05,-0.269565,-1.40588e-08,-0.175052,2.6759e-06,3.81434e-06
11.346,-0.356421,0.127957,-2.81314e-06,-1.1449e-05,-0.269565,-1.26873e-08,-0.175052,2.6805e-06,3.82105e-06
11.366,-0.356421,0.127957,-2.84944e-06,-1.13334e-05,-0.269565,-1.26269e-08,-0.175052,2.68513e-06,3.82787e-06
11.386,-0.356421,0.127956,-2.75974e-06,-1.27864e-05,-0.269565,-1.40818e-08,-0.175052,2.68999e-06,3.83456e-06
11.406,-0.356421,0.127956,-2.58792e-06,-1.20664e-05,-0.269565,-1.32796e-08,-0.175052,2.6948e-06,3.8411e-06
11.426,-0.356419,0.127955,-2.59375e-06,-1.20784e-05,-0.269563,-1.32943e-08,-0.175051,2.69963e-06,3.84768e-06
11.446,-0.354601,0.127302,-2.59444e-06,-1.20755e-05,-0.268188,-1.32907e-08,-0.174158,2.70446e-06,3.85425e-06
11.466,-0.348635,0.125161,-2.59071e-06,-1.20483e-05,-0.263676,-1.32594e-08,-0.171228,2.70928e-06,3.86081e-06
11.486,-0.342204,0.122852,-2.76788e-06,-1.27529e-05,-0.258812,-1.40453e-08,-0.16807,2.71392e-06,3.86764e-06
11.506,-0.337012,0.12099,-2.86358e-06,-1.1355e-05,-0.254886,-1.26544e-08,-0.16552,2.71849e-06,3.87433e-06
11.526,-0.327104,0.114089,-2.79007e-06,-1.27695e-05,-0.245377,-1.40662e-08,-0.155962,2.72332e-06,3.88098e-06
11.546,-0.317104,0.104091,-2.85671e-06,-1.14351e-05,-0.235377,-1.26704e-08,-0.137733,2.72788e-06,3.88764e-06
11.566,-0.307104,0.0940907,-2.87798e-06,-1.15008e-05,-0.225377,-1.27303e-08,-0.120939,2.73266e-06,3.89417e-06
11.586,-0.297104,0.0840906,-2.89838e-06,-1.15466e-05,-0.215377,-1.27724e-08,-0.106402,2.73743e-06,3.90069e-06
11.606,-0.287104,0.0740907,-2.94392e-06,-1.13209e-05,-0.205377,-1.25821e-08,-0.0855531,2.74197e-06,3.90742e-06
11.626,-0.277104,0.0640907,-2.96065e-06,-1.13162e-05,-0.195377,-1.25579e-08,-0.0610011,2.74649e-06,3.91414e-06
11.646,-0.267104,0.0540892,-2.73588e-06,-1.19921e-05,-0.185377,-1.31262e-08,-0.038585,2.75122e-06,3.92071e-06
11.666,-0.257104,0.0440892,-2.77577e-06,-1.21195e-05,-0.175377,-1.3243e-08,-0.0194031,2.75594e-06,3.92719e-06
11.686,-0.247104,0.0340891,-2.91135e-06,-1.26974e-05,-0.165377,-1.38762e-08,-0.0116504,2.76042e-06,3.93388e-06
11.706,-0.237104,0.0240892,-2.79005e-06,-1.20788e-05,-0.155377,-1.31847e-08,-0.00867384,2.76509e-06,3.9403e-06
11.726,-0.227104,0.0140892,-2.82484e-06,-1.21137e-05,-0.145377,-1.32199e-08,-0.000842577,2.76977e-06,3.94675e-06
11.746,-0.217104,0.00409072,-3.04042e-06,-1.12955e-05,-0.135377,-1.24806e-08,0.00409511,2.77418e-06,3.95331e-06
11.766,-0.207104,-0.00157968,-3.01595e-06,-1.14309e-05,-0.125377,-1.25562e-08,0.00216403,2.77885e-06,3.95971e-06
11.786,-0.197103,0.0001269,-3.4504e-06,-1.33437e-05,-0.115376,-1.46072e-08,-0.000173431,2.78356e-06,3.96666e-06
11.806,-0.187104,-6.31946e-06,-2.97837e-06,-1.18944e-05,-0.105377,-1.29856e-08,-6.00843e-09,2.78798e-06,3.97289e-06
11.826,-0.177104,8.72184e-06,-3.02871e-06,-1.13657e-05,-0.0953766,-1.24792e-08,-5.36219e-09,2.79245e-06,3.97948e-06
11.846,-0.167104,8.81177e-06,-3.04238e-06,-1.14452e-05,-0.0853766,-1.25528e-08,-5.02785e-09,2.79711e-06,3.98588e-06
11.866,-0.157104,8.80142e-06,-3.05442e-06,-1.14899e-05,-0.0753766,-1.25919e-08,-4.72175e-09,2.80176e-06,3.99228e-06
11.886,-0.147104,8.13759e-06,-3.05898e-06,-1.27821e-05,-0.0653766,-1.39189e-08,-4.49457e-09,2.80643e-06,3.99882e-06
11.906,-0.137104,-6.1259e-06,-2.86728e-06,-1.19909e-05,-0.0553766,-1.30301e-08,-4.15351e-09,2.81103e-06,4.00519e-06
11.926,-0.127104,-6.09829e-06,-2.86859e-06,-1.19973e-05,-0.0453766,-1.30212e-08,-3.96651e-09,2.81566e-06,4.01156e-06
11.946,-0.117104,-6.28521e-06,-3.10639e-06,-1.12684e-05,-0.0353766,-1.23915e-08,-3.9296e-09,2.82004e-06,4.01808e-06
11.966,-0.107104,-6.1439e-06,-2.87956e-06,-1.19148e-05,-0.0253766,-1.29219e-08,-3.70532e-09,2.82466e-06,4.02454e-06
11.986,-0.0971035,-6.26822e-06,-3.11791e-06,-1.12604e-05,-0.0153766,-1.23613e-08,-3.74773e-09,2.82905e-06,4.03105e-06
12.006,-0.0871035,8.72727e-06,-3.08442e-06,-1.1384e-05,-0.00537658,-1.24155e-08,-3.63245e-09,2.83367e-06,4.03741e-06
12.026,-0.0771035,8.7163e-06,-3.09533e-06,-1.14286e-05,-1.32083e-06,-1.24512e-08,-3.61788e-09,2.83829e-06,4.04378e-06
12.046,-0.0671035,8.70935e-06,-3.10731e-06,-1.14717e-05,1.75396e-06,-1.24917e-08,-3.62098e-09,2.84291e-06,4.05016e-06
12.066,-0.0571035,8.06694e-06,-3.11692e-06,-1.27573e-05,1.94869e-06,-1.38097e-08,-3.64185e-09,2.84757e-06,4.05669e-06
12.086,-0.0471035,-6.00132e-06,-2.89309e-06,-1.19062e-05,-1.56266e-06,-1.2859e-08,-3.53185e-09,2.85213e-06,4.063e-06
12.106,-0.0371035,-6.49723e-06,-3.58442e-06,-1.34135e-05,-1.4159e-06,-1.4556e-08,-3.6223e-09,2.85679e-06,4.06981e-06
12.126,-0.0271035,8.72514e-06,-3.21019e-06,-1.20372e-05,2.24523e-06,-1.30467e-08,-3.75315e-09,2.86117e-06,4.07611e-06
12.146,-0.0171035,-6.06439e-06,-2.9234e-06,-1.18768e-05,-1.55236e-06,-1.28262e-08,-3.52804e-09,2.86578e-06,4.0825e-06
12.166,-0.00710353,8.56798e-06,-3.11951e-06,-1.12883e-05,1.72968e-06,-1.22905e-08,-3.56244e-09,2.87016e-06,4.08899e-06
12.186,-1.52685e-07,8.83558e-06,-3.24994e-06,-1.08089e-05,1.6787e-06,-1.18022e-08,-3.61608e-09,2.87494e-06,4.09551e-06
12.206,-1.70291e-07,-6.02261e-06,-3.10429e-06,-1.14313e-05,1.72994e-06,-1.2375e-08,-3.53821e-09,2.88019e-06,4.1026e-06
12.226,-1.70099e-07,-5.94588e-06,-3.09221e-06,-1.14824e-05,1.73529e-06,-1.24153e-08,-3.54209e-09,2.8854e-06,4.10955e-06
12.246,-1.52207e-07,8.74135e-06,-3.30794e-06,-1.0803e-05,1.66634e-06,-1.17971e-08,-3.5946e-09,2.89039e-06,4.11664e-06
12.266,-1.56741e-07,-6.22494e-06,-3.34958e-06,-1.06796e-05,1.6877e-06,-1.17351e-08,-3.68874e-09,2.89541e-06,4.12385e-06
12.286,-1.52669e-07,8.84864e-06,-3.31653e-06,-1.08537e-05,1.67542e-06,-1.1848e-08,-3.61514e-09,2.90066e-06,4.13084e-06
12.306,-1.52731e-07,8.84561e-06,-3.32244e-06,-1.09028e-05,1.68301e-06,-1.18961e-08,-3.62471e-09,2.90592e-06,4.13784e-06
12.326,-1.97625e-07,6.67684e-06,-3.04806e-06,-1.06971e-05,1.75017e-06,-1.16835e-08,5.01682e-09,2.91142e-06,4.14516e-06
12.346,-1.96619e-07,-5.97801e-06,-3.12348e-06,-1.14882e-05,1.75264e-06,-1.24274e-08,5.1178e-09,2.91669e-06,4.15217e-06
12.366,-1.52228e-07,8.73568e-06,-3.29294e-06,-1.07456e-05,1.66436e-06,-1.17398e-08,4.81181e-09,2.92161e-06,4.15921e-06
12.386,-1.52631e-07,8.84403e-06,-3.31883e-06,-1.0878e-05,1.67873e-06,-1.18712e-08,4.85795e-09,2.92687e-06,4.1662e-06
12.406,-1.7698e-07,7.88066e-06,-3.27599e-06,-1.22115e-05,1.865e-06,-1.32194e-08,5.2971e-09,2.93217e-06,4.17333e-06
12.426,-1.52375e-07,8.74968e-06,-3.31207e-06,-1.08167e-05,1.66798e-06,-1.18127e-08,4.82038e-09,2.93714e-06,4.1804e-06
12.446,-1.7008e-07,-6.01716e-06,-3.0985e-06,-1.142e-05,1.72568e-06,-1.23721e-08,5.07844e-09,2.94238e-06,4.18747e-06
12.466,-1.70829e-07,-5.96392e-06,-3.10227e-06,-1.14725e-05,1.74117e-06,-1.24873e-08,5.11268e-09,2.94759e-06,4.19442e-06
12.486,-1.92942e-07,-6.49469e-06,-3.8417e-06,-1.31139e-05,2.11522e-06,-1.43945e-08,5.80716e-09,2.95287e-06,4.20185e-06
12.506,1.51877e-07,-6.37521e-06,-3.27017e-06,-1.12258e-05,-1.3863e-06,-1.24036e-08,5.14414e-09,2.95777e-06,4.20857e-06
12.526,1.52768e-07,8.75822e-06,-3.30745e-06,-1.06643e-05,-1.32294e-06,-1.19532e-08,4.82308e-09,2.9628e-06,4.2157e-06
12.546,1.52577e-07,7.51104e-06,-3.1054e-06,-1.11165e-05,-1.34307e-06,-1.24572e-08,-3.63601e-09,2.9682e-06,4.22286e-06
12.566,-1.77044e-07,7.81013e-06,-3.25726e-06,-1.19022e-05,1.86008e-06,-1.33701e-08,-3.59427e-09,2.97312e-06,4.22998e-06
12.586,-1.56761e-07,-6.21487e-06,-3.34467e-06,-1.04577e-05,1.69126e-06,-1.2015e-08,-3.68357e-09,2.97806e-06,4.23704e-06
12.606,-1.57058e-07,-6.23822e-06,-3.35065e-06,-1.03894e-05,1.69005e-06,-1.20227e-08,-3.68587e-09,2.98307e-06,4.24424e-06
12.626,-1.52866e-07,8.85171e-06,-3.31652e-06,-1.05284e-05,1.67781e-06,-1.21678e-08,-3.61215e-09,2.98832e-06,4.25123e-06
12.646,-1.7898e-07,7.98713e-06,-3.31e-06,-1.19155e-05,1.8882e-06,-1.37001e-08,-3.62043e-09,2.99363e-06,4.25837e-06
12.666,-1.69961e-07,-5.94211e-06,-3.09219e-06,-1.10783e-05,1.73382e-06,-1.28092e-08,-3.54042e-09,2.9988e-06,4.26528e-06
12.686,-1.69963e-07,-5.94129e-06,-3.09241e-06,-1.10454e-05,1.73478e-06,-1.2845e-08,-3.54077e-09,3.00401e-06,4.27223e-06
12.706,-1.76541e-07,7.79174e-06,-3.27155e-06,-1.17163e-05,1.86521e-06,-1.3702e-08,-3.58697e-09,3.00905e-06,4.27946e-06
12.726,-1.52556e-07,8.74797e-06,-3.31068e-06,-1.03226e-05,1.6709e-06,-1.22869e-08,-3.59595e-09,3.01402e-06,4.28654e-06
12.746,-1.69479e-07,-5.99701e-06,-3.09009e-06,-1.08631e-05,1.71988e-06,-1.28596e-08,-3.5338e-09,3.01926e-06,4.2936e-06
12.766,-1.76352e-07,7.78333e-06,-3.27034e-06,-1.16144e-05,1.86446e-06,-1.3804e-08,-3.5854e-09,3.0243e-06,4.30084e-06
12.786,-1.71432e-07,-5.96633e-06,-3.12078e-06,-1.09616e-05,1.75228e-06,-1.30975e-08,-3.55555e-09,3.02949e-06,4.30778e-06
12.806,-1.56549e-07,-6.20639e-06,-3.34118e-06,-1.01031e-05,1.69063e-06,-1.2348e-08,-3.67677e-09,3.03444e-06,4.31486e-06
12.826,-1.52757e-07,8.83999e-06,-3.31485e-06,-1.02274e-05,1.67876e-06,-1.24753e-08,-3.61197e-09,3.0397e-06,4.32184e-06
12.846,-1.5281e-07,8.83665e-06,-3.32095e-06,-1.02525e-05,1.68652e-06,-1.2554e-08,-3.62226e-09,3.04496e-06,4.32885e-06
12.866,-1.69275e-07,-5.9883e-06,-3.08888e-06,-1.07055e-05,1.71964e-06,-1.3039e-08,-3.53687e-09,3.0502e-06,4.33591e-06
12.886,-1.5236e-07,8.73207e-06,-3.30536e-06,-1.01085e-05,1.6701e-06,-1.2488e-08,-3.59338e-09,3.0552e-06,4.34301e-06
12.906,-1.70054e-07,-5.99965e-06,-3.10312e-06,-1.06985e-05,1.72816e-06,-1.31323e-08,-3.54321e-09,3.06045e-06,4.35009e-06
12.926,-1.69786e-07,-5.92302e-06,-3.09547e-06,-1.07432e-05,1.73622e-06,-1.3217e-08,-3.54515e-09,3.06566e-06,4.35704e-06
12.946,-1.52352e-07,8.72966e-06,-3.30527e-06,-1.00637e-05,1.67057e-06,-1.25554e-08,-3.59424e-09,3.07065e-06,4.36414e-06
12.966,-1.52664e-07,8.82815e-06,-3.3168e-06,-1.01304e-05,1.68281e-06,-1.26632e-08,-3.61655e-09,3.07591e-06,4.37114e-06
12.986,-1.52812e-07,8.82928e-06,-3.32352e-06,-1.01678e-05,1.69129e-06,-1.27355e-08,-3.62971e-09,3.08117e-06,4.37815e-06
13.006,-1.6987e-07,-5.99117e-06,-3.10231e-06,-1.0636e-05,1.72869e-06,-1.3245e-08,-3.54566e-09,3.08643e-06,4.38523e-06
13.026,-1.52348e-07,8.72611e-06,-3.30496e-06,-1.00274e-05,1.67107e-06,-1.26233e-08,-3.59565e-09,3.09141e-06,4.39232e-06
13.046,-1.6915e-07,-5.98172e-06,-3.09157e-06,-1.05937e-05,1.72231e-06,-1.32431e-08,-3.5429e-09,3.09666e-06,4.3994e-06
13.066,-1.68872e-07,-5.89825e-06,-3.08428e-06,-1.06593e-05,1.7306e-06,-1.33281e-08,-3.5438e-09,3.10187e-06,4.40635e-06
13.086,-1.52332e-07,8.72469e-06,-3.30404e-06,-1.00127e-05,1.66981e-06,-1.26501e-08,-3.5939e-09,3.10687e-06,4.41344e-06
13.106,1.56729e-07,-6.20731e-06,-3.47944e-06,-1.05973e-05,-1.34314e-06,-1.34449e-08,-3.6632e-09,3.11185e-06,4.42062e-06
13.126,1.50682e-07,7.77842e-06,-3.24228e-06,-1.14393e-05,-1.33545e-06,-1.43604e-08,-3.61152e-09,3.11709e-06,4.42768e-06
13.146,-1.95645e-07,-5.93289e-06,0.0005563,0.000606343,-1.58146e-06,-0.000654681,-3.54841e-09,3.12227e-06,4.43461e-06
13.166,-1.52212e-07,8.70989e-06,0.00390491,0.00423502,1.66321e-06,-0.00445173,-3.54625e-09,3.12718e-06,4.44163e-06
13.186,-1.51676e-07,8.78364e-06,0.0107747,0.0116085,1.65384e-06,-0.0117638,-3.43731e-09,3.13243e-06,4.44863e-06
13.206,-1.50577e-07,8.72977e-06,0.0202017,0.0213875,1.64146e-06,-0.0207774,4.36726e-09,3.13768e-06,4.45561e-06
13.226,-1.54361e-07,-6.12392e-06,0.0302017,0.0313875,1.96166e-06,-0.0287566,4.30874e-09,3.14269e-06,4.46281e-06
13.246,-1.69751e-07,7.54802e-06,0.0401461,0.0413875,-1.22488e-06,-0.0333058,4.48848e-09,3.14798e-06,4.46992e-06
13.266,-1.6292e-07,-5.64536e-06,0.0486007,0.0494766,1.67448e-06,-0.0336337,4.26168e-09,3.15315e-06,4.47683e-06
13.286,-1.61876e-07,-5.6044e-06,0.0569784,0.0571553,1.66274e-06,-0.0321847,4.2005e-09,3.15835e-06,4.48377e-06
13.306,-1.61127e-07,-5.57127e-06,0.0639106,0.0667769,1.03073e-06,-0.0374152,3.38436e-09,3.16356e-06,4.49072e-06
13.326,-1.60331e-07,-5.52542e-06,0.0672023,0.0767769,9.98415e-07,-0.0474152,3.30296e-09,3.16876e-06,4.49766e-06
13.346,-1.64163e-07,7.25552e-06,0.0666344,0.0867769,1.50974e-06,-0.0574152,3.36618e-09,3.17379e-06,4.50489e-06
13.366,-1.59977e-07,6.09635e-06,0.0633422,0.0967769,1.52145e-06,-0.0674152,3.20639e-09,3.17897e-06,4.51183e-06
13.386,-1.57728e-07,6.00611e-06,0.0591286,0.106777,1.51003e-06,-0.0774152,-2.3029e-09,3.18417e-06,4.51877e-06
13.406,-2.0602e-07,7.98663e-06,0.0557769,0.116777,-1.08592e-06,-0.0874152,3.34415e-09,3.18911e-06,4.52595e-06
13.426,-2.01988e-07,7.98332e-06,0.0543641,0.126777,1.40754e-06,-0.0974152,2.00814e-09,3.19409e-06,4.53304e-06
13.446,1.58041e-07,-5.60522e-06,0.0545742,0.136777,8.37798e-07,-0.107415,1.46053e-09,3.19943e-06,4.54061e-06
13.466,-1.90842e-07,-5.7418e-06,0.0547817,0.146777,-1.02504e-06,-0.117415,-2.12173e-09,3.20427e-06,4.54727e-06
13.486,-1.94258e-07,-5.58585e-06,0.0554025,0.156777,8.5587e-07,-0.127415,1.63664e-09,3.20924e-06,4.55435e-06
13.506,-2.00789e-07,-5.71215e-06,0.0571603,0.166777,1.41349e-06,-0.137415,2.55833e-09,3.21422e-06,4.56153e-06
13.526,1.38423e-07,-5.48147e-06,0.0601051,0.176777,1.34558e-06,-0.147415,-1.46859e-09,3.21944e-06,4.56848e-06
13.546,-1.50446e-07,5.73147e-06,0.0638481,0.186777,7.03224e-07,-0.157415,1.1684e-09,3.22469e-06,4.57557e-06
13.566,-1.71187e-07,6.45895e-06,0.0677975,0.196777,6.67649e-07,-0.167415,1.10325e-09,3.22996e-06,4.58257e-06
13.586,-1.71368e-07,6.47083e-06,0.071394,0.206777,6.4684e-07,-0.177415,1.05257e-09,3.23525e-06,4.58961e-06
13.606,-1.71942e-07,6.50363e-06,0.0743468,0.216777,6.33943e-07,-0.187415,1.01421e-09,3.24054e-06,4.59666e-06
13.626,-1.95097e-07,7.73552e-06,0.0768693,0.226777,6.34701e-07,-0.197415,9.01498e-10,3.24552e-06,4.60379e-06
13.646,-1.33845e-07,5.28671e-06,0.0798731,0.236777,5.91333e-07,-0.207415,8.32684e-10,3.25084e-06,4.61084e-06
13.666,-1.33033e-07,5.254e-06,0.0843029,0.246777,5.77906e-07,-0.217415,8.07955e-10,3.25617e-06,4.61791e-06
13.686,-1.32312e-07,5.22644e-06,0.0903791,0.256777,5.67629e-07,-0.227415,7.8467e-10,3.26151e-06,4.62502e-06
13.706,-1.64302e-07,5.47131e-06,0.0977579,0.266777,5.56202e-07,-0.237415,7.63841e-10,3.26687e-06,4.63223e-06
13.726,-1.64729e-07,6.24755e-06,0.105778,0.276777,5.49253e-07,-0.247415,7.24301e-10,3.27224e-06,4.63935e-06
13.746,-1.90687e-07,7.59515e-06,0.113708,0.286777,5.5438e-07,-0.257415,7.70529e-10,3.27732e-06,4.64656e-06
13.766,-1.29618e-07,5.11572e-06,0.120995,0.296777,5.34836e-07,-0.267415,5.84597e-10,3.28274e-06,4.65371e-06
13.786,-1.28907e-07,5.08781e-06,0.127507,0.306777,5.34424e-07,-0.277415,1.64922e-09,3.28817e-06,4.66089e-06
13.806,-1.43273e-07,5.525e-06,0.133769,0.316777,5.22029e-07,-0.287415,1.31314e-09,3.29368e-06,4.66822e-06
13.826,-1.27087e-07,5.04409e-06,0.140364,0.326777,5.32055e-07,-0.297415,1.04168e-09,3.29884e-06,4.6755e-06
13.846,-1.27516e-07,5.03216e-06,0.147236,0.336777,5.32511e-07,-0.307415,-1.12124e-09,3.30434e-06,4.68273e-06
13.866,-1.42176e-07,5.48983e-06,0.154276,0.346777,5.04261e-07,-0.317415,1.74223e-09,3.30991e-06,4.69013e-06
13.886,-1.25866e-07,4.99805e-06,0.161385,0.356777,5.32938e-07,-0.327415,2.23352e-09,3.31514e-06,4.69747e-06
13.906,-1.26557e-07,4.99415e-06,0.168482,0.366777,5.31323e-07,-0.337415,1.58993e-09,3.32071e-06,4.70477e-06
13.926,-1.2634e-07,4.9855e-06,0.175515,0.376777,5.2831e-07,-0.347415,2.508e-09,3.32629e-06,4.71211e-06
13.946,-1.26172e-07,4.97912e-06,0.182468,0.386777,5.24269e-07,-0.357415,3.45295e-09,3.33191e-06,4.71949e-06
13.966,-1.2607e-07,4.97568e-06,0.189371,0.396777,5.19336e-07,-0.367415,2.05975e-09,3.33754e-06,4.72691e-06
13.986,-1.26035e-07,4.97532e-06,0.196298,0.406777,5.1363e-07,-0.377415,-2.77289e-09,3.34321e-06,4.73436e-06
14.006,-1.40367e-07,5.42331e-06,0.203237,0.416777,4.79256e-07,-0.387415,4.94585e-09,3.34895e-06,4.74195e-06
14.026,-1.58792e-07,6.03464e-06,0.210127,0.426777,4.63763e-07,-0.397415,-2.73656e-09,3.35462e-06,4.74937e-06
14.046,-1.59448e-07,6.06637e-06,0.216952,0.436777,4.67226e-07,-0.407415,-2.84912e-09,3.36035e-06,4.75684e-06
14.066,-1.61387e-07,6.1497e-06,0.223725,0.446777,4.77553e-07,-0.417415,-3.02077e-09,3.3661e-06,4.76434e-06
14.086,-1.892e-07,7.58542e-06,0.230475,0.456777,5.52941e-07,-0.427415,-2.81766e-09,3.37156e-06,4.77191e-06
14.106,-1.38216e-07,6.08365e-06,0.237235,0.466777,4.75656e-07,-0.437415,-3.27079e-09,3.37739e-06,4.77957e-06
14.126,-1.63665e-07,6.2408e-06,0.244027,0.476777,4.96459e-07,-0.447415,-3.48279e-09,3.38322e-06,4.78716e-06
14.146,-1.65927e-07,6.33607e-06,0.25085,0.486777,5.16295e-07,-0.457415,-3.65428e-09,3.38907e-06,4.79479e-06
14.166,-1.26805e-07,5.0371e-06,0.257667,0.496777,4.51665e-07,-0.467415,-3.46543e-09,3.39459e-06,4.80243e-06
14.186,-1.28608e-07,5.07543e-06,0.264436,0.506777,4.67444e-07,-0.477415,-3.64854e-09,3.40048e-06,4.81007e-06
14.206,-1.29198e-07,5.09905e-06,0.271143,0.516777,1.22517e-06,-0.487415,-3.80046e-09,3.4064e-06,4.81774e-06
14.226,-1.46728e-07,5.67113e-06,0.277797,0.526777,1.546e-06,-0.497415,-4.59599e-09,3.41243e-06,4.8256e-06
14.246,-1.67276e-07,6.36406e-06,0.284421,0.536777,1.49362e-06,-0.507415,-4.34887e-09,3.41837e-06,4.83329e-06
14.266,-1.69691e-07,6.46372e-06,0.291041,0.546777,1.48455e-06,-0.517415,-4.50944e-09,3.42435e-06,4.84103e-06
14.286,-1.9651e-07,7.8517e-06,0.297682,0.556777,1.23624e-06,-0.527415,-4.21138e-09,3.43002e-06,4.8488e-06
14.306,-1.44217e-07,6.31484e-06,0.304352,0.566777,7.93581e-07,-0.537415,-4.68344e-09,3.43608e-06,4.8567e-06
14.326,-1.69277e-07,6.41924e-06,0.311038,0.576777,8.25616e-07,-0.547415,-4.86069e-09,3.44212e-06,4.86447e-06
14.346,-1.99637e-07,7.96146e-06,0.317573,0.586777,8.04121e-07,-0.557415,-4.60358e-09,3.44785e-06,4.8723e-06
14.366,-1.48227e-07,6.49468e-06,0.323604,0.596777,1.68775e-06,-0.567415,-5.09348e-09,3.45398e-06,4.88027e-06
14.386,1.34646e-07,5.33965e-06,0.329025,0.606777,1.48529e-06,-0.577415,-4.89598e-09,3.45973e-06,4.88813e-06
14.406,-1.36778e-07,5.40282e-06,0.33395,0.616777,8.69607e-07,-0.587415,-5.06343e-09,3.46584e-06,4.89597e-06
14.426,-1.37804e-07,5.4461e-06,0.338625,0.626777,8.90121e-07,-0.597415,-5.19069e-09,3.47197e-06,4.90385e-06
14.446,-1.38847e-07,-5.49096e-06,0.343324,0.636777,-8.70546e-07,-0.607415,-5.31477e-09,3.47812e-06,4.91176e-06
14.466,-1.62441e-07,-5.47938e-06,0.348262,0.646777,1.14164e-06,-0.617415,-6.25801e-09,3.4844e-06,4.91992e-06
14.486,-2.07117e-07,-5.78417e-06,0.353492,0.656777,1.56277e-06,-0.627415,-5.39037e-09,3.49011e-06,4.92781e-06
14.506,-1.41679e-07,-5.60268e-06,0.358827,0.666777,-9.44994e-07,-0.637415,-5.5662e-09,3.49629e-06,4.93572e-06
14.526,-1.42766e-07,-5.64869e-06,0.364208,0.676777,-9.88804e-07,-0.647415,-5.69768e-09,3.50248e-06,4.94365e-06
14.546,-1.43939e-07,-5.75274e-06,0.369878,0.686777,-1.02809e-06,-0.657415,-5.81357e-09,3.50868e-06,4.95161e-06
14.566,-1.45148e-07,-5.81609e-06,0.375909,0.696777,1.65698e-06,-0.667415,-5.92814e-09,3.51489e-06,4.95959e-06
14.586,-1.46385e-07,-5.88154e-06,0.382229,0.706777,1.05536e-06,-0.677415,-6.04123e-09,3.52111e-06,4.96759e-06
14.606,-1.47643e-07,-5.94875e-06,0.388682,0.716777,-1.15408e-06,-0.687415,-6.15221e-09,3.52734e-06,4.97562e-06
14.626,-1.48917e-07,-6.01735e-06,0.395097,0.726777,1.10648e-06,-0.697415,-6.26044e-09,3.53358e-06,4.98366e-06
14.646,-1.65617e-07,-5.89731e-06,0.40135,0.736777,1.99902e-06,-0.707415,-6.95115e-09,3.53993e-06,4.99187e-06
14.666,-1.90659e-07,6.29719e-06,0.407431,0.746777,-1.47826e-06,-0.717415,-6.63169e-09,3.54613e-06,4.99981e-06
14.686,-2.191e-07,-6.26358e-06,0.413599,0.756777,1.1402e-06,-0.727415,-6.36488e-09,3.55198e-06,5.00777e-06
14.706,-1.92041e-07,7.23728e-06,0.421192,0.766777,1.26389e-06,-0.737415,-6.73409e-09,3.55831e-06,5.01592e-06
14.726,-2.12062e-07,-6.19148e-06,0.430893,0.776777,1.75008e-06,-0.747415,-6.52045e-09,3.56411e-06,5.02383e-06
14.746,-2.13754e-07,-6.25763e-06,0.440893,0.786777,1.7792e-06,-0.757415,-6.62343e-09,3.57024e-06,5.03169e-06
14.766,-2.15261e-07,-6.32612e-06,0.450893,0.796777,1.29335e-06,-0.767415,-6.7123e-09,3.57636e-06,5.03957e-06
14.786,-2.00539e-07,7.57026e-06,0.460893,0.806777,-1.40806e-06,-0.777415,-7.10916e-09,3.58269e-06,5.04776e-06
14.806,-2.16561e-07,8.95173e-06,0.470893,0.816777,-1.47166e-06,-0.787415,-6.79061e-09,3.58841e-06,5.05561e-06
14.826,-2.26713e-07,-6.59489e-06,0.480893,0.826777,1.87693e-06,-0.797415,-6.89048e-09,3.59432e-06,5.06372e-06
14.846,-1.98098e-07,-6.15086e-06,0.490893,0.836777,2.59167e-06,-0.807415,-7.07894e-09,3.60059e-06,5.07182e-06
14.866,-1.98676e-07,-6.17312e-06,0.500893,0.846777,2.76779e-06,-0.817415,-7.12115e-09,3.60675e-06,5.07971e-06
14.886,-2.20019e-07,-6.45339e-06,0.510893,0.856777,2.51533e-06,-0.827415,-6.97981e-09,3.61247e-06,5.08753e-06
14.906,-2.28504e-07,-6.74432e-06,0.520893,0.866777,1.94566e-06,-0.837415,-7.06899e-09,3.61832e-06,5.09558e-06
14.926,-2.30578e-07,-6.77387e-06,0.530893,0.876777,-1.63787e-06,-0.847415,-7.11577e-09,3.62416e-06,5.10361e-06
14.946,-2.01621e-07,6.84017e-06,0.540893,0.886777,-1.70661e-06,-0.857415,-7.55642e-09,3.63034e-06,5.11161e-06
14.966,1.73041e-07,-7.64046e-06,0.550893,0.896777,-2.08957e-06,-0.867415,-8.69281e-09,3.63659e-06,5.12e-06
14.986,1.65572e-07,-6.95932e-06,0.560893,0.906777,2.82221e-06,-0.877415,-7.0861e-09,3.6421e-06,5.12733e-06
15.006,1.65037e-07,-6.58898e-06,0.570893,0.916777,2.66191e-06,-0.887415,-7.07649e-09,3.6479e-06,5.13523e-06
15.026,1.649e-07,-6.58902e-06,0.580893,0.926777,2.68966e-06,-0.897415,-7.08763e-09,3.65389e-06,5.14295e-06
15.046,1.65208e-07,-6.60841e-06,0.590893,0.936777,2.71543e-06,-0.907415,-7.09539e-09,3.65985e-06,5.15066e-06
15.066,1.66395e-07,-6.62786e-06,0.600893,0.946777,2.74001e-06,-0.917415,-7.10814e-09,3.66577e-06,5.15835e-06
15.086,2.36965e-07,1.90244e-05,0.610893,0.950003,8.44211e-06,-0.915455,-2.01513e-08,3.67157e-06,5.16592e-06
15.106,4.38591e-07,3.71056e-05,0.620889,0.949985,1.40748e-05,-0.905455,-3.43731e-08,3.67721e-06,5.17337e-06
15.126,-6.84018e-07,5.10115e-05,0.630888,0.949983,2.0765e-05,-0.895455,-5.04236e-08,3.68295e-06,5.18092e-06
15.146,-4.40097e-07,3.09417e-05,0.640889,0.949985,1.3681e-05,-0.885455,-3.33863e-08,3.68858e-06,5.18829e-06
15.166,7.92353e-07,7.10961e-05,0.650887,0.949988,2.04045e-05,-0.875455,-4.95048e-08,3.69439e-06,5.19584e-06
15.186,2.40972e-07,2.20537e-05,0.660893,0.950009,1.3794e-05,-0.865455,-3.34438e-08,3.70036e-06,5.20396e-06
15.206,4.44469e-07,4.1372e-05,0.670891,0.950001,1.28933e-05,-0.855455,-3.01212e-08,3.70551e-06,5.21094e-06
15.226,-5.13087e-07,3.80903e-05,0.678386,0.94998,2.00985e-05,-0.845455,-4.88594e-08,3.71131e-06,5.21848e-06
15.246,1.56264e-07,1.57798e-05,0.6708,0.949996,1.9334e-05,-0.835455,-4.83573e-08,3.71794e-06,5.22703e-06
15.266,-4.94447e-07,-3.58282e-05,0.660793,0.949984,1.72474e-05,-0.825455,-4.23142e-08,3.72258e-06,5.2336e-06
15.286,-4.09862e-07,-2.62335e-05,0.650796,0.95,1.33975e-05,-0.815455,-3.17763e-08,3.72839e-06,5.24125e-06
15.306,-4.86598e-07,-3.26598e-05,0.640796,0.95,1.44965e-05,-0.805455,-3.4363e-08,3.73402e-06,5.24862e-06
15.326,-5.72956e-07,-4.04164e-05,0.630793,0.949988,1.33906e-05,-0.795455,-3.27229e-08,3.73965e-06,5.25601e-06
15.346,-2.54855e-07,-1.18202e-05,0.620797,0.949504,8.54415e-06,-0.785455,-2.04409e-08,3.74531e-06,5.26341e-06
15.366,1.4899e-07,6.60342e-06,0.610798,0.9395,2.94611e-06,-0.775455,-7.00134e-09,3.75115e-06,5.271e-06
15.386,1.45172e-07,-7.15785e-06,0.600798,0.9295,3.41193e-06,-0.765455,-8.50034e-09,3.75726e-06,5.27926e-06
15.406,1.55153e-07,7.16526e-06,0.590798,0.9195,-1.88582e-06,-0.755455,-7.6623e-09,3.76292e-06,5.28689e-06
15.426,1.4681e-07,7.20245e-06,0.580798,0.9095,-1.65002e-06,-0.745455,-6.95865e-09,3.76868e-06,5.29443e-06
15.446,-1.55751e-07,8.90111e-06,0.570798,0.8995,2.63586e-06,-0.735455,-6.75483e-09,3.77434e-06,5.30219e-06
15.466,-2.20295e-07,-6.43707e-06,0.560798,0.8895,1.51122e-06,-0.725455,-6.7756e-09,3.78014e-06,5.31018e-06
15.486,-2.2113e-07,8.69556e-06,0.550798,0.8795,1.49122e-06,-0.715455,-6.74224e-09,3.78594e-06,5.31817e-06
15.506,-1.88593e-07,-5.79093e-06,0.540798,0.8695,-1.58266e-06,-0.705455,-6.86638e-09,3.79211e-06,5.32617e-06
15.526,-1.87247e-07,6.2052e-06,0.530798,0.8595,1.56771e-06,-0.695455,-6.84556e-09,3.79819e-06,5.33399e-06
15.546,-1.8762e-07,6.21836e-06,0.520798,0.8495,2.8571e-06,-0.685455,-6.84061e-09,3.80429e-06,5.34183e-06
15.566,-2.17077e-07,-6.23976e-06,0.510798,0.8395,1.39187e-06,-0.675455,-6.49775e-09,3.81e-06,5.34968e-06
15.586,-2.07708e-07,-6.03765e-06,0.500798,0.8295,-1.65133e-06,-0.665455,-6.45987e-09,3.81602e-06,5.35743e-06
15.606,-1.84094e-07,-5.70146e-06,0.490798,0.8195,2.9715e-06,-0.655455,-7.10388e-09,3.82222e-06,5.36547e-06
15.626,-1.8526e-07,6.14769e-06,0.480798,0.8095,1.47365e-06,-0.645455,-6.66187e-09,3.82832e-06,5.37334e-06
15.646,-1.85476e-07,6.15641e-06,0.470798,0.7995,1.45847e-06,-0.635455,-6.62486e-09,3.83445e-06,5.38125e-06
15.666,-2.12049e-07,-6.04021e-06,0.460798,0.7895,1.79689e-06,-0.625455,-6.09216e-09,3.84014e-06,5.38911e-06
15.686,1.30997e-07,-5.42686e-06,0.450798,0.7795,-1.90333e-06,-0.615455,-6.79697e-09,3.84636e-06,5.39716e-06
15.706,-1.81087e-07,6.97777e-06,0.440798,0.7695,2.11055e-06,-0.605455,-6.30136e-09,3.85259e-06,5.40539e-06
15.726,-1.99804e-07,-5.71841e-06,0.430798,0.7595,2.19772e-06,-0.595455,-5.85217e-09,3.8581e-06,5.41307e-06
15.746,-1.41871e-07,-5.64306e-06,0.420798,0.7495,1.17911e-06,-0.585455,-5.75722e-09,3.86422e-06,5.42093e-06
15.766,-1.40838e-07,-5.60233e-06,0.410798,0.7395,1.68e-06,-0.575455,-5.68631e-09,3.87034e-06,5.42879e-06
15.786,-1.39825e-07,-5.56429e-06,0.400798,0.7295,1.67294e-06,-0.565455,-5.59742e-09,3.87644e-06,5.43667e-06
15.806,-1.38811e-07,-5.52034e-06,0.390798,0.7195,-1.19483e-06,-0.555455,-5.50414e-09,3.88255e-06,5.44455e-06
15.826,-1.54153e-07,-5.09383e-06,0.380798,0.7095,1.32582e-06,-0.545455,-6.2318e-09,3.88877e-06,5.45266e-06
15.846,1.20711e-07,5.73024e-06,0.370798,0.6995,1.99519e-06,-0.535455,-5.95389e-09,3.89451e-06,5.46063e-06
15.866,1.09627e-07,-4.3412e-06,0.360798,0.6895,-1.99723e-06,-0.525455,-7.56266e-09,3.90144e-06,5.46948e-06
15.886,-1.34484e-07,-5.31243e-06,0.350798,0.6795,1.53439e-06,-0.515455,-4.95621e-09,3.90627e-06,5.47648e-06
15.906,-1.46773e-07,-4.89965e-06,0.340798,0.6695,1.15955e-06,-0.505455,-5.63209e-09,3.91241e-06,5.48445e-06
15.926,-1.66172e-07,6.34401e-06,0.330798,0.6595,-1.0464e-06,-0.495455,-5.0595e-09,3.91841e-06,5.49221e-06
15.946,1.40555e-07,-5.69735e-06,0.320798,0.6495,7.28537e-07,-0.485455,-4.36216e-09,3.92416e-06,5.50016e-06
15.966,-1.34285e-07,7.7839e-06,0.310798,0.6395,8.63269e-07,-0.475455,-4.48432e-09,3.92999e-06,5.50809e-06
15.986,-1.3107e-07,5.17546e-06,0.300798,0.6295,-7.61747e-07,-0.465455,-4.31134e-09,3.93595e-06,5.51578e-06
16.006,-1.42323e-07,5.52523e-06,0.290798,0.6195,-1.00731e-06,-0.455455,-4.9033e-09,3.94198e-06,5.52366e-06
16.026,-1.59253e-07,6.07152e-06,0.280798,0.6095,-7.83566e-07,-0.445455,-4.29509e-09,3.94787e-06,5.53129e-06
16.046,-1.91712e-07,7.69054e-06,0.270798,0.5995,6.36208e-07,-0.435455,-3.77841e-09,3.95344e-06,5.53898e-06
16.066,-1.28771e-07,5.08442e-06,0.260798,0.5895,1.39541e-06,-0.425455,-3.72782e-09,3.95932e-06,5.5466e-06
16.086,-1.57775e-07,6.01605e-06,0.250798,0.5795,7.4252e-07,-0.415455,-3.83181e-09,3.96524e-06,5.55435e-06
16.106,-1.5679e-07,5.97241e-06,0.240798,0.5695,1.36089e-06,-0.405455,-3.67695e-09,3.97107e-06,5.56192e-06
16.126,1.20422e-07,-5.03287e-06,0.230798,0.5595,-4.98141e-07,-0.395455,-3.33195e-09,3.97667e-06,5.56971e-06
16.146,-1.27234e-07,5.02426e-06,0.220798,0.5495,1.09526e-06,-0.385455,-3.10253e-09,3.98216e-06,5.5773e-06
16.166,-1.26865e-07,5.00854e-06,0.210798,0.5395,4.21144e-07,-0.375455,-2.96732e-09,3.98793e-06,5.5848e-06
16.186,-1.26634e-07,4.99856e-06,0.200798,0.5295,4.2824e-07,-0.365455,-2.81856e-09,3.99367e-06,5.5923e-06
16.206,-1.38523e-07,5.37066e-06,0.190798,0.5195,5.12557e-07,-0.355455,5.34541e-09,3.99946e-06,5.59992e-06
16.226,-1.25548e-07,4.98952e-06,0.180798,0.5095,4.67656e-07,-0.345455,-2.46523e-09,4.00484e-06,5.6074e-06
16.246,-1.26532e-07,4.99433e-06,0.170798,0.4995,4.81273e-07,-0.335455,-2.33831e-09,4.01051e-06,5.61481e-06
16.266,-1.56953e-07,5.97677e-06,0.160798,0.4895,4.614e-07,-0.325455,2.38113e-09,4.01619e-06,5.62232e-06
16.286,-1.87982e-07,7.5344e-06,0.150798,0.4795,5.57075e-07,-0.315455,1.92376e-09,4.02151e-06,5.62975e-06
16.306,-1.27187e-07,5.01994e-06,0.140798,0.4695,5.12936e-07,-0.305455,-1.84954e-09,4.02711e-06,5.63708e-06
16.326,-1.8843e-07,5.24546e-06,0.130798,0.4595,5.64945e-07,-0.295455,-1.77334e-09,4.03241e-06,5.64459e-06
16.346,-1.27817e-07,5.04446e-06,0.120798,0.4495,5.23099e-07,-0.285455,1.52868e-09,4.03797e-06,5.65188e-06
16.366,-1.61478e-07,5.37715e-06,0.110798,0.4395,5.02973e-07,-0.275455,-1.69815e-09,4.04353e-06,5.65929e-06
16.386,-1.64167e-07,5.46716e-06,0.100798,0.4295,5.18795e-07,-0.265455,2.77344e-09,4.04903e-06,5.66657e-06
16.406,-1.66665e-07,5.54916e-06,0.0907977,0.4195,5.33903e-07,-0.255455,1.32749e-09,4.05451e-06,5.67384e-06
16.426,1.35029e-07,-5.42587e-06,0.0807977,0.4095,5.48218e-07,-0.245455,6.37317e-10,4.0597e-06,5.68123e-06
16.446,-1.30372e-07,-5.22086e-06,0.0707977,0.3995,5.36373e-07,-0.235455,1.86146e-09,4.06516e-06,5.68854e-06
16.466,-1.3106e-07,-5.26327e-06,0.0607977,0.3895,5.42394e-07,-0.225455,5.95494e-10,4.07057e-06,5.69584e-06
16.486,-1.3193e-07,-5.31506e-06,0.0507977,0.3795,5.50487e-07,-0.215455,6.78906e-10,4.07597e-06,5.70313e-06
16.506,-1.32878e-07,-5.37142e-06,0.0407977,0.3695,5.60837e-07,-0.205455,7.5212e-10,4.08135e-06,5.71041e-06
16.526,-1.39521e-07,6.16461e-06,0.0307977,0.3595,5.34015e-07,-0.195455,7.43583e-10,4.08678e-06,5.71757e-06
16.546,-1.68657e-07,6.37525e-06,0.0207977,0.3495,5.57107e-07,-0.185455,8.44484e-10,4.09211e-06,5.72464e-06
16.566,-1.69833e-07,6.40901e-06,0.0121382,0.3395,5.6816e-07,-0.175455,8.87178e-10,4.09742e-06,5.73169e-06
16.586,-1.71502e-07,6.47456e-06,0.00456902,0.3295,5.83878e-07,-0.165455,9.37691e-10,4.10272e-06,5.73873e-06
16.606,-1.74536e-07,6.59336e-06,-2.99046e-06,0.3195,6.05568e-07,-0.155455,9.97626e-10,4.10802e-06,5.74578e-06
16.626,-1.73791e-07,-5.19753e-06,-2.97519e-06,0.3095,6.10753e-07,-0.145455,1.02342e-09,4.11328e-06,5.7528e-06
16.646,-1.74028e-07,5.76767e-06,-2.96938e-06,0.2995,6.2387e-07,-0.135455,1.06937e-09,4.11855e-06,5.75981e-06
16.666,-1.75017e-07,6.59836e-06,-2.97395e-06,0.2895,6.39181e-07,-0.125455,1.12169e-09,4.12382e-06,5.76682e-06
16.686,-1.76546e-07,6.65894e-06,-2.98564e-06,0.2795,6.56393e-07,-0.115455,1.19213e-09,4.12908e-06,5.77382e-06
16.706,-1.77562e-07,6.69469e-06,-2.99082e-06,0.2695,-6.79479e-07,-0.105455,1.2832e-09,4.13433e-06,5.78081e-06
16.726,-1.78613e-07,6.73192e-06,-2.99657e-06,0.2595,-7.07558e-07,-0.0954553,-1.47285e-09,4.13958e-06,5.7878e-06
16.746,-1.79676e-07,6.76964e-06,-3.00263e-06,0.2495,-7.42923e-07,-0.0854553,2.5528e-09,4.14482e-06,5.79479e-06
16.766,-1.80407e-07,-5.40961e-06,-3.00548e-06,0.2395,-7.90213e-07,-0.0754553,-1.74617e-09,4.15006e-06,5.80177e-06
16.786,-2.06206e-07,-5.88708e-06,-3.25069e-06,0.2295,1.36007e-06,-0.0654553,2.93722e-09,4.15502e-06,5.80885e-06
16.806,-2.00272e-07,-5.79139e-06,-3.20694e-06,0.2195,1.33518e-06,-0.0554553,-2.24979e-09,4.16017e-06,5.81572e-06
16.826,-1.87717e-07,-5.95361e-06,-3.17288e-06,0.2095,-8.8457e-07,-0.0454553,-2.25579e-09,4.16539e-06,5.82277e-06
16.846,-2.0902e-07,-5.97511e-06,-3.27067e-06,0.1995,-9.78301e-07,-0.0354553,3.13871e-09,4.17032e-06,5.82982e-06
16.866,-2.03117e-07,8.51168e-06,-3.22622e-06,0.1895,-9.72993e-07,-0.0254553,3.70827e-09,4.17546e-06,5.8367e-06
16.886,-1.89458e-07,-5.74446e-06,-3.09105e-06,0.1795,-9.4913e-07,-0.0154553,-2.78219e-09,4.18072e-06,5.8438e-06
16.906,-1.92609e-07,-5.76452e-06,-3.12478e-06,0.1695,-1.05651e-06,-0.00545527,-3.00308e-09,4.18597e-06,5.85082e-06
16.926,-2.12351e-07,-6.09083e-06,-3.29354e-06,0.1595,1.61025e-06,1.24285e-08,4.06411e-09,4.19092e-06,5.85788e-06
16.946,-1.65632e-07,-5.80148e-06,-3.06479e-06,0.1495,1.48484e-06,1.29375e-08,-2.71162e-09,4.19612e-06,5.86491e-06
16.966,-1.65269e-07,-5.74159e-06,-3.05074e-06,0.1395,1.02659e-06,1.29156e-08,-2.77304e-09,4.20132e-06,5.87185e-06
16.986,-1.66945e-07,-5.78295e-06,-3.07647e-06,0.1295,1.6896e-06,1.29356e-08,-2.84217e-09,4.20653e-06,5.87881e-06
17.006,-1.49766e-07,8.63211e-06,-3.28708e-06,0.1195,-1.22415e-06,1.22195e-08,-2.92685e-09,4.21151e-06,5.88589e-06
17.026,-1.81469e-07,-7.94477e-06,-3.75109e-06,0.1095,1.06941e-06,1.49739e-08,4.07483e-09,4.2172e-06,5.89331e-06
17.046,-1.55809e-07,-6.19566e-06,-3.23746e-06,0.0995,1.91293e-06,1.14589e-08,4.48279e-09,4.22181e-06,5.90024e-06
17.066,-1.50806e-07,8.76483e-06,-3.29793e-06,0.0895,1.60375e-06,1.21092e-08,4.23253e-09,4.22708e-06,5.90725e-06
17.086,-1.51036e-07,8.77108e-06,-3.30695e-06,0.0795,-1.16673e-06,1.21173e-08,4.2955e-09,4.23234e-06,5.91424e-06
17.106,-1.51413e-07,8.78207e-06,-3.3152e-06,0.0695,1.96119e-06,1.21144e-08,4.36107e-09,4.23759e-06,5.92125e-06
17.126,-1.51808e-07,8.79356e-06,-3.32358e-06,0.0595,1.9816e-06,1.21108e-08,-3.30319e-09,4.24284e-06,5.92827e-06
17.146,-1.52216e-07,8.80538e-06,-3.33211e-06,0.0495,2.00176e-06,1.21065e-08,-3.3722e-09,4.24809e-06,5.93531e-06
17.166,-1.52637e-07,8.81755e-06,-3.34079e-06,0.0395,2.02196e-06,1.21016e-08,-3.44163e-09,4.25335e-06,5.94236e-06
17.186,1.51665e-07,9.10986e-06,-3.3404e-06,0.0295,1.98534e-06,1.14547e-08,-3.56732e-09,4.25839e-06,5.94928e-06
17.206,1.7433e-07,9.07111e-06,-3.38372e-06,0.0195,-1.35178e-06,1.12371e-08,-3.63652e-09,4.26339e-06,5.9565e-06
17.226,1.7286e-07,9.66925e-06,-3.51264e-06,0.00949999,-1.36207e-06,1.12381e-08,-3.6703e-09,4.26848e-06,5.96376e-06
17.246,1.52724e-07,8.75121e-06,-3.30945e-06,1.36265e-05,-1.32251e-06,1.15967e-08,-3.59497e-09,4.27352e-06,5.97097e-06
17.266,1.53016e-07,8.85917e-06,-3.31704e-06,1.10855e-05,-1.33189e-06,1.16964e-08,-3.62029e-09,4.27874e-06,5.97793e-06
17.286,1.53276e-07,8.86113e-06,-3.32363e-06,1.11344e-05,-1.33683e-06,1.17436e-08,-3.63302e-09,4.28395e-06,5.9849e-06
17.306,1.53549e-07,8.86322e-06,-3.33027e-06,1.11825e-05,-1.34183e-06,1.179e-08,-3.6459e-09,4.28917e-06,5.99188e-06
17.326,1.53829e-07,8.86543e-06,-3.337e-06,1.12309e-05,-1.34687e-06,1.18368e-08,-3.65888e-09,4.29439e-06,5.99888e-06
17.346,-1.95239e-07,-6.01687e-06,-3.09027e-06,1.15166e-05,-1.60924e-06,1.20719e-08,-3.53302e-09,4.29956e-06,6.00588e-06
17.366,-1.52224e-07,8.73841e-06,-3.29372e-06,1.09335e-05,1.66254e-06,1.15482e-08,-3.59463e-09,4.30451e-06,6.01292e-06
17.386,-1.52671e-07,8.84878e-06,-3.32012e-06,1.10683e-05,1.6771e-06,1.16793e-08,-3.61794e-09,4.30976e-06,6.01992e-06
17.406,-1.52864e-07,8.85117e-06,-3.32697e-06,1.11172e-05,1.68558e-06,1.17266e-08,-3.63091e-09,4.31502e-06,6.02692e-06
17.426,-1.53056e-07,8.85323e-06,-3.33358e-06,1.11652e-05,1.69407e-06,1.1773e-08,-3.64377e-09,4.32027e-06,6.03394e-06
17.446,1.55066e-07,8.3922e-06,-3.26955e-06,1.08257e-05,-1.383e-06,1.14265e-08,-3.75791e-09,4.3256e-06,6.04109e-06
17.466,-2.19653e-07,8.55507e-06,-3.17847e-06,1.0482e-05,-1.32813e-06,1.10881e-08,-3.61084e-09,4.33083e-06,6.04816e-06
17.486,-2.11921e-07,8.77545e-06,-3.29798e-06,1.11721e-05,-1.3409e-06,1.1779e-08,-3.6407e-09,4.33602e-06,6.05512e-06
17.506,-2.12482e-07,8.78113e-06,-3.30694e-06,1.12318e-05,-1.34618e-06,1.1837e-08,-3.65452e-09,4.34117e-06,6.06207e-06
17.526,-2.12982e-07,8.78412e-06,-3.314e-06,1.12808e-05,-1.35127e-06,1.18844e-08,-3.66772e-09,4.34633e-06,6.06904e-06
17.546,-2.13487e-07,8.78714e-06,-3.32111e-06,1.133e-05,-1.35639e-06,1.19319e-08,-3.68098e-09,4.35149e-06,6.07601e-06
17.566,-1.56288e-07,-6.2096e-06,-3.34797e-06,1.08071e-05,2.01207e-06,1.14936e-08,-3.66926e-09,4.35642e-06,6.08322e-06
17.586,-1.56752e-07,-6.22571e-06,-3.35039e-06,1.08649e-05,1.68586e-06,1.15352e-08,-3.68833e-09,4.36143e-06,6.09043e-06
17.606,-1.52709e-07,8.85348e-06,-3.31785e-06,1.1044e-05,1.67383e-06,1.16567e-08,-3.61509e-09,4.36669e-06,6.09742e-06
17.626,1.54002e-07,9.46606e-06,-3.41666e-06,1.06796e-05,-1.35761e-06,1.13245e-08,-3.72162e-09,4.37182e-06,6.10433e-06
17.646,1.52667e-07,8.75142e-06,-3.30932e-06,1.09804e-05,-1.3244e-06,1.15985e-08,-3.59994e-09,4.37686e-06,6.11154e-06
17.666,-2.165e-07,-6.23872e-06,-3.30964e-06,1.08574e-05,2.03002e-06,1.15297e-08,-3.6688e-09,4.38176e-06,6.11865e-06
17.686,-1.52709e-07,8.85433e-06,-3.31743e-06,1.10487e-05,1.67408e-06,1.16613e-08,-3.61496e-09,4.387e-06,6.12562e-06
17.706,-1.52774e-07,8.85037e-06,-3.32374e-06,1.10935e-05,1.68143e-06,1.17038e-08,-3.62464e-09,4.39225e-06,6.13262e-06
17.726,-1.80366e-07,8.07208e-06,-3.33194e-06,1.25317e-05,1.89819e-06,1.31613e-08,-3.63812e-09,4.39755e-06,6.13977e-06
17.746,-1.76161e-07,-6.07931e-06,-3.19755e-06,1.19108e-05,1.79971e-06,1.24867e-08,-3.59369e-09,4.40275e-06,6.14676e-06
17.766,-1.71556e-07,-5.99469e-06,-3.12124e-06,1.17157e-05,1.7523e-06,1.22755e-08,-3.55206e-09,4.40793e-06,6.15371e-06
17.786,-1.71658e-07,-5.98081e-06,-3.11734e-06,1.17343e-05,1.75092e-06,1.22891e-08,-3.55414e-09,4.41314e-06,6.16066e-06
17.806,-1.56393e-07,-6.20021e-06,-3.34172e-06,1.08809e-05,1.68613e-06,1.15449e-08,-3.68366e-09,4.41809e-06,6.16774e-06
17.826,-1.52696e-07,8.85303e-06,-3.31769e-06,1.10445e-05,1.67379e-06,1.16571e-08,-3.61475e-09,4.42334e-06,6.17472e-06
17.846,-1.52774e-07,8.85034e-06,-3.32374e-06,1.10935e-05,1.68143e-06,1.17038e-08,-3.62465e-09,4.42859e-06,6.18172e-06
17.866,-1.5296e-07,8.8522e-06,-3.33029e-06,1.11413e-05,1.68984e-06,1.17499e-08,-3.63737e-09,4.43385e-06,6.18873e-06
17.886,-1.53155e-07,8.8543e-06,-3.33693e-06,1.11894e-05,1.69839e-06,1.17964e-08,-3.65027e-09,4.43911e-06,6.19576e-06
17.906,-1.53356e-07,8.8565e-06,-3.34366e-06,1.12379e-05,1.70706e-06,1.18433e-08,-3.66326e-09,4.44436e-06,6.2028e-06
